;Gcode generated by Cura by Dagoma 2.1.7
;Printer: Magis
;Date: 08-02-2023
;Time: 15:03:01
;Print duration: 9 min
;Layer height: 0.2 mm
;Filling: 17.0 %
;Print speed: 40.0 mm/s
;Support: Touching buildplate
;Filament:
;- Material: PLA Chromatik Red
;- Temperature: 220.0 °C
;- Flow: 100.0 %
;- Retraction amount: 3.8 mm
;- Retraction speed: 60.0 mm/s
;- Length: 0.80 m
;- Weight: 2 g
;- Cost: 0.08 EUR
G90 ;absolute positioning
G28
M107
M109 R100
G29
M109 S220 U-55 X55 V-85 Y-85 W0.26 Z0.26 ;Temperature for the first layer only
M82 ;set extruder to absolute mode
G92 E0 ;zero the extruded length
G1 F200 E6 ;extrude 10mm of feed stock
G92 E0 ;zero the extruded length again
G1 F200 E-3.5
G0 Z0.15
G0 X10
G0 Z3
G1 F4800
M117 Printing...

;Layer count: 15
;LAYER:0
M117 Nb = 1 / 15
M106 S127
G0 F4800 X0.072 Y14.302 Z0.260
;TYPE:WALL-INNER
G1 F1020 X-0.004 Y14.310 E0.00334
G1 X-3.100 Y14.005 E0.13941
G1 X-3.045 Y15.782 E0.21716
G1 X-2.991 Y16.439 E0.24600
G1 X-2.836 Y17.082 E0.27492
G1 X-2.584 Y17.725 E0.30513
G1 X-2.244 Y18.318 E0.33503
G1 X-2.569 Y17.886 E0.35867
G1 X-2.848 Y17.349 E0.38514
G1 X-3.050 Y16.723 E0.41391
G1 X-3.116 Y16.116 E0.44061
G1 X-3.177 Y14.531 E0.50998
G1 X-3.199 Y14.015 E0.53257
G1 X-6.366 Y13.055 E0.67731
G1 X-6.462 Y13.026 E0.68170
G1 X-9.276 Y11.522 E0.82125
G1 X-9.386 Y11.463 E0.82671
G1 X-11.851 Y9.440 E0.96618
G1 X-11.947 Y9.361 E0.97161
G1 X-14.050 Y6.798 E1.11662
G1 X-15.551 Y3.989 E1.25591
G1 X-15.611 Y3.876 E1.26151
G1 X-16.572 Y0.710 E1.40622
G1 X-16.897 Y-2.587 E1.55111
G1 X-16.572 Y-5.884 E1.69601
G1 X-15.648 Y-8.932 E1.83531
G1 X-15.609 Y-9.054 E1.84091
G1 X-14.108 Y-11.863 E1.98021
G1 X-14.049 Y-11.974 E1.98571
G1 X-12.028 Y-14.437 E2.12506
G1 X-11.948 Y-14.534 E2.13055
G1 X-9.385 Y-16.638 E2.27558
G1 X-6.575 Y-18.139 E2.41492
G1 X-6.462 Y-18.199 E2.42051
G1 X-3.296 Y-19.160 E2.56522
G1 X0.000 Y-19.484 E2.71007
G1 X3.296 Y-19.160 E2.85492
G1 X6.344 Y-18.236 E2.99422
G1 X6.466 Y-18.197 E2.99983
G1 X9.385 Y-16.638 E3.14456
G1 X11.850 Y-14.615 E3.28403
G1 X11.947 Y-14.535 E3.28953
G1 X13.970 Y-12.070 E3.42900
G1 X14.049 Y-11.973 E3.43447
G1 X15.610 Y-9.053 E3.57928
G1 X16.535 Y-6.002 E3.71872
G1 X16.572 Y-5.880 E3.72430
G1 X16.897 Y-2.587 E3.86902
G1 X16.572 Y0.710 E4.01392
G1 X15.610 Y3.879 E4.15877
G1 X14.108 Y6.689 E4.29812
G1 X14.049 Y6.800 E4.30362
G1 X12.028 Y9.263 E4.44297
G1 X11.948 Y9.360 E4.44847
G1 X9.483 Y11.384 E4.58796
G1 X9.386 Y11.463 E4.59344
G1 X6.465 Y13.024 E4.73829
G1 X3.225 Y14.007 E4.88637
G1 X3.147 Y16.025 E4.97470
G1 X3.081 Y16.695 E5.00415
G1 X2.893 Y17.317 E5.03256
G1 X2.595 Y17.890 E5.06081
G1 X2.204 Y18.410 E5.08927
G1 X2.086 Y18.520 E5.09632
G1 X2.225 Y18.352 E5.10586
G1 X2.532 Y17.823 E5.13261
G1 X2.570 Y17.758 E5.13590
G1 X2.813 Y17.149 E5.16458
G1 X2.991 Y16.441 E5.19651
G1 X3.045 Y15.782 E5.22543
G1 X3.098 Y14.005 E5.30318
G1 X0.072 Y14.302 E5.43617
G0 F4800 X-0.001 Y14.712
;TYPE:WALL-OUTER
G1 F1020 X-2.686 Y14.448 E5.55417
G1 X-2.646 Y15.759 E5.61153
G1 X-2.595 Y16.375 E5.63857
G1 X-2.453 Y16.961 E5.66494
G1 X-2.222 Y17.552 E5.69269
G1 X-1.895 Y18.122 E5.72143
G1 X-1.533 Y18.560 E5.74628
G1 X-1.278 Y18.797 E5.76151
G1 X-0.819 Y19.095 E5.78544
G1 X-0.541 Y19.205 E5.79852
G1 X-0.281 Y19.268 E5.81022
G1 X0.000 Y19.291 E5.82255
G1 X0.282 Y19.268 E5.83493
G1 X0.554 Y19.202 E5.84717
G1 X0.816 Y19.096 E5.85953
G1 X1.074 Y18.949 E5.87252
G1 X1.294 Y18.785 E5.88452
G1 X1.533 Y18.561 E5.89884
G1 X1.896 Y18.123 E5.92372
G1 X2.185 Y17.624 E5.94894
G1 X2.432 Y17.026 E5.97724
G1 X2.595 Y16.376 E6.00655
G1 X2.646 Y15.759 E6.03363
G1 X2.685 Y14.448 E6.09099
G1 X0.113 Y14.700 E6.20402
G1 X-0.001 Y14.712 E6.20904
G0 F4800 X-0.003 Y14.412
G0 X-3.029 Y14.080
G0 X-3.286 Y14.303
G0 X-3.586 Y14.316
G1 F1020 X-6.620 Y13.396 E6.34770
G1 X-9.607 Y11.799 E6.49584
G1 X-12.232 Y9.645 E6.64435
G1 X-14.385 Y7.020 E6.79284
G1 X-15.982 Y4.034 E6.94094
G1 X-16.966 Y0.790 E7.08921
G1 X-17.299 Y-2.587 E7.23762
G1 X-16.966 Y-5.964 E7.38604
G1 X-15.982 Y-9.208 E7.53430
G1 X-14.385 Y-12.194 E7.68240
G1 X-12.232 Y-14.819 E7.83089
G1 X-9.607 Y-16.973 E7.97940
G1 X-6.620 Y-18.570 E8.12754
G1 X-3.376 Y-19.554 E8.27581
G1 X0.000 Y-19.886 E8.42418
G1 X3.376 Y-19.554 E8.57254
G1 X6.620 Y-18.570 E8.72081
G1 X9.607 Y-16.973 E8.86895
G1 X12.232 Y-14.819 E9.01746
G1 X14.385 Y-12.194 E9.16595
G1 X15.982 Y-9.208 E9.31405
G1 X16.966 Y-5.964 E9.46232
G1 X17.299 Y-2.587 E9.61073
G1 X16.966 Y0.790 E9.75915
G1 X15.982 Y4.034 E9.90741
G1 X14.385 Y7.020 E10.05551
G1 X12.232 Y9.645 E10.20400
G1 X9.607 Y11.799 E10.35251
G1 X6.620 Y13.396 E10.50065
G1 X3.614 Y14.307 E10.63803
G1 X3.547 Y16.047 E10.71419
G1 X3.475 Y16.775 E10.74619
G1 X3.265 Y17.467 E10.77781
G1 X2.935 Y18.104 E10.80919
G1 X2.502 Y18.678 E10.84064
G1 X1.999 Y19.149 E10.87078
G1 X1.682 Y19.379 E10.88791
G1 X1.364 Y19.558 E10.90387
G1 X1.034 Y19.700 E10.91958
G1 X0.719 Y19.799 E10.93402
G1 X0.370 Y19.865 E10.94955
G1 X0.015 Y19.886 E10.96511
G1 X-0.365 Y19.861 E10.98176
G1 X-0.701 Y19.796 E10.99673
G1 X-1.024 Y19.695 E11.01153
G1 X-1.346 Y19.553 E11.02692
G1 X-1.668 Y19.369 E11.04315
G1 X-1.972 Y19.147 E11.05961
G1 X-2.473 Y18.678 E11.08962
G1 X-2.907 Y18.104 E11.12110
G1 X-3.220 Y17.500 E11.15085
G1 X-3.442 Y16.811 E11.18251
G1 X-3.517 Y16.127 E11.21261
G1 X-3.576 Y14.548 E11.28171
G1 X-3.586 Y14.316 E11.29187
G0 F4800 X-3.406 Y13.847
;TYPE:SKIN
G1 F1020 X-16.434 Y0.818 E12.09772
G0 F4800 X-16.525 Y0.162
G1 F1020 X-2.749 Y13.938 E12.94981
G0 F4800 X-2.122 Y14.000
G1 F1020 X-16.586 Y-0.464 E13.84445
G0 F4800 X-16.648 Y-1.092
G1 F1020 X-1.494 Y14.061 E14.78173
G0 F4800 X-0.867 Y14.123
G1 F1020 X-16.710 Y-1.719 E15.76164
G0 F4800 X-16.771 Y-2.346
G1 F1020 X-0.240 Y14.184 E16.78410
G0 F4800 X0.316 Y14.176
G1 F1020 X-16.764 Y-2.904 E17.84054
G0 F4800 X-16.713 Y-3.420
G1 F1020 X0.832 Y14.125 E18.92575
G0 F4800 X1.347 Y14.074
G1 F1020 X-16.662 Y-3.935 E20.03966
G0 F4800 X-16.612 Y-4.450
G1 F1020 X1.862 Y14.024 E21.18233
G0 F4800 X2.378 Y13.974
G1 F1020 X-16.562 Y-4.966 E22.35383
G0 F4800 X-16.511 Y-5.480
G1 F1020 X2.892 Y13.923 E23.55396
G0 F4800 X3.387 Y13.852
G1 F1020 X-16.440 Y-5.975 E24.78031
G0 F4800 X-16.309 Y-6.409
G1 F1020 X3.821 Y13.720 E26.02538
G0 F4800 X4.255 Y13.589
G1 F1020 X-16.177 Y-6.843 E27.28916
G0 F4800 X-16.045 Y-7.277
G1 F1020 X4.689 Y13.457 E28.57162
G0 F4800 X5.123 Y13.326
G1 F1020 X-15.914 Y-7.711 E29.87282
G0 F4800 X-15.782 Y-8.145
G1 F1020 X5.557 Y13.193 E31.19266
G0 F4800 X5.991 Y13.062
G1 F1020 X-15.651 Y-8.580 E32.53128
G0 F4800 X-15.516 Y-9.011
G1 F1020 X6.425 Y12.930 E33.88840
G0 F4800 X6.794 Y12.734
G1 F1020 X-15.321 Y-9.381 E35.25628
G0 F4800 X-15.124 Y-9.750
G1 F1020 X7.162 Y12.537 E36.63476
G0 F4800 X7.531 Y12.339
G1 F1020 X-14.927 Y-10.119 E38.02385
G0 F4800 X-14.730 Y-10.487
G1 F1020 X7.900 Y12.143 E39.42358
G0 F4800 X8.268 Y11.945
G1 F1020 X-14.533 Y-10.856 E40.83389
G0 F4800 X-14.336 Y-11.225
G1 F1020 X8.638 Y11.749 E42.25490
G0 F4800 X9.006 Y11.552
G1 F1020 X-14.139 Y-11.593 E43.68648
G0 F4800 X-13.935 Y-11.955
G1 F1020 X9.367 Y11.347 E45.12778
G0 F4800 X9.678 Y11.092
G1 F1020 X-13.680 Y-12.266 E46.57254
G0 F4800 X-13.425 Y-12.576
G1 F1020 X9.988 Y10.837 E48.02070
G0 F4800 X10.299 Y10.582
G1 F1020 X-13.170 Y-12.887 E49.47233
G0 F4800 X-12.915 Y-13.198
G1 F1020 X10.610 Y10.327 E50.92742
G0 F4800 X10.921 Y10.072
G1 F1020 X-12.660 Y-13.509 E52.38597
G0 F4800 X-12.405 Y-13.819
G1 F1020 X11.231 Y9.817 E53.84792
G0 F4800 X11.542 Y9.562
G1 F1020 X-12.150 Y-14.130 E55.31334
G0 F4800 X-11.895 Y-14.441
G1 F1020 X11.853 Y9.307 E56.78222
G0 F4800 X12.112 Y9.001
G1 F1020 X-11.588 Y-14.699 E58.24814
G0 F4800 X-11.277 Y-14.954
G1 F1020 X12.368 Y8.691 E59.71065
G0 F4800 X12.622 Y8.379
G1 F1020 X-10.966 Y-15.209 E61.16963
G0 F4800 X-10.656 Y-15.464
G1 F1020 X12.877 Y8.069 E62.62522
G0 F4800 X13.132 Y7.758
G1 F1020 X-10.345 Y-15.719 E64.07734
G0 F4800 X-10.034 Y-15.974
G1 F1020 X13.387 Y7.447 E65.52599
G0 F4800 X13.642 Y7.137
G1 F1020 X-9.724 Y-16.229 E66.97125
G0 F4800 X-9.413 Y-16.484
G1 F1020 X13.897 Y6.826 E68.41304
G0 F4800 X14.110 Y6.473
G1 F1020 X-9.060 Y-16.697 E69.84617
G0 F4800 X-8.692 Y-16.894
G1 F1020 X14.307 Y6.105 E71.26873
G0 F4800 X14.504 Y5.736
G1 F1020 X-8.323 Y-17.091 E72.68064
G0 F4800 X-7.954 Y-17.288
G1 F1020 X14.701 Y5.367 E74.08192
G0 F4800 X14.898 Y4.999
G1 F1020 X-7.585 Y-17.485 E75.47259
G0 F4800 X-7.217 Y-17.682
G1 F1020 X15.095 Y4.630 E76.85265
G0 F4800 X15.292 Y4.261
G1 F1020 X-6.848 Y-17.879 E78.22207
G0 F4800 X-6.479 Y-18.076
G1 F1020 X15.489 Y3.892 E79.58086
G0 F4800 X15.630 Y3.468
G1 F1020 X-6.055 Y-18.217 E80.92214
G0 F4800 X-5.622 Y-18.350
G1 F1020 X15.762 Y3.034 E82.24480
G0 F4800 X15.893 Y2.600
G1 F1020 X-5.188 Y-18.481 E83.54872
G0 F4800 X-4.753 Y-18.613
G1 F1020 X16.025 Y2.166 E84.83393
G0 F4800 X16.157 Y1.732
G1 F1020 X-4.319 Y-18.744 E86.10043
G0 F4800 X-3.886 Y-18.876
G1 F1020 X16.289 Y1.298 E87.34828
G0 F4800 X16.421 Y0.864
G1 F1020 X-3.452 Y-19.008 E88.57745
G0 F4800 X-2.969 Y-19.091
G1 F1020 X16.503 Y0.381 E89.78185
G0 F4800 X16.554 Y-0.133
G1 F1020 X-2.453 Y-19.141 E90.95752
G0 F4800 X-1.938 Y-19.192
G1 F1020 X16.604 Y-0.648 E92.10446
G0 F4800 X16.655 Y-1.163
G1 F1020 X-1.423 Y-19.242 E93.22267
G0 F4800 X-0.907 Y-19.292
G1 F1020 X16.706 Y-1.678 E94.31211
G0 F4800 X16.757 Y-2.193
G1 F1020 X-0.392 Y-19.342 E95.37283
G0 F4800 X0.149 Y-19.366
G1 F1020 X16.781 Y-2.735 E96.40153
G0 F4800 X16.719 Y-3.362
G1 F1020 X0.776 Y-19.305 E97.38765
G0 F4800 X1.402 Y-19.244
G1 F1020 X16.658 Y-3.989 E98.33125
G0 F4800 X16.595 Y-4.617
G1 F1020 X2.030 Y-19.183 E99.23217
G0 F4800 X2.657 Y-19.121
G1 F1020 X16.534 Y-5.244 E100.09050
G0 F4800 X16.469 Y-5.874
G1 F1020 X3.285 Y-19.059 E100.90600
G0 F4800 X4.097 Y-18.812
G1 F1020 X16.223 Y-6.686 E101.65603
G0 F4800 X15.977 Y-7.498
G1 F1020 X4.909 Y-18.566 E102.34062
G0 F4800 X5.721 Y-18.319
G1 F1020 X15.731 Y-8.309 E102.95976
G0 F4800 X15.431 Y-9.175
G1 F1020 X6.590 Y-18.017 E103.50664
G0 F4800 X7.803 Y-17.369
G1 F1020 X14.782 Y-10.390 E103.93831
G0 F4800 X14.132 Y-11.606
G1 F1020 X9.017 Y-16.721 E104.25468
G0 F4800 X11.679 Y-14.625
G1 F1020 X12.038 Y-14.265 E104.27692
G0 F4800 X-4.217 Y13.601
G1 F1020 X-16.188 Y1.630 E105.01736
G0 F4800 X-15.941 Y2.443
G1 F1020 X-5.028 Y13.355 E105.69233
G0 F4800 X-5.839 Y13.110
G1 F1020 X-15.695 Y3.254 E106.30195
G0 F4800 X-15.335 Y4.181
G1 F1020 X-6.764 Y12.751 E106.83206
G0 F4800 X-7.980 Y12.101
G1 F1020 X-14.685 Y5.395 E107.24682
G0 F4800 X-14.036 Y6.610
G1 F1020 X-9.196 Y11.450 E107.54619
;LAYER:1
M117 Nb = 2 / 15
G0 F4800 X-9.385 Y11.464 Z0.460
;TYPE:WALL-INNER
G1 F1320 X-11.947 Y9.360 E107.65772
G1 X-14.050 Y6.798 E107.76923
G1 X-15.443 Y4.190 E107.86871
G1 X-15.611 Y3.876 E107.88069
G1 X-16.572 Y0.710 E107.99200
G1 X-16.897 Y-2.587 E108.10346
G1 X-16.572 Y-5.884 E108.21492
G1 X-15.610 Y-9.053 E108.32635
G1 X-14.216 Y-11.662 E108.42587
G1 X-14.049 Y-11.974 E108.43777
G1 X-11.947 Y-14.534 E108.54921
G1 X-9.385 Y-16.638 E108.66075
G1 X-6.465 Y-18.198 E108.77213
G1 X-3.296 Y-19.160 E108.88355
G1 X-0.351 Y-19.449 E108.98310
G1 X0.001 Y-19.484 E108.99501
G1 X3.296 Y-19.160 E109.10640
G1 X6.465 Y-18.198 E109.21782
G1 X9.385 Y-16.638 E109.32920
G1 X11.947 Y-14.534 E109.44073
G1 X14.050 Y-11.972 E109.55225
G1 X15.610 Y-9.053 E109.66360
G1 X16.572 Y-5.884 E109.77502
G1 X16.897 Y-2.587 E109.88648
G1 X16.572 Y0.710 E109.99794
G1 X15.610 Y3.879 E110.10936
G1 X14.216 Y6.488 E110.20888
G1 X14.049 Y6.800 E110.22078
G1 X11.947 Y9.360 E110.33222
G1 X9.385 Y11.464 E110.44376
G1 X6.465 Y13.024 E110.55514
G1 X3.225 Y14.007 E110.66905
G1 X3.144 Y16.106 E110.73972
G1 X3.085 Y16.652 E110.75820
G1 X2.891 Y17.320 E110.78160
G1 X2.595 Y17.890 E110.80321
G1 X2.204 Y18.410 E110.82510
G1 X2.086 Y18.520 E110.83052
G1 X2.225 Y18.352 E110.83786
G1 X2.569 Y17.759 E110.86092
G1 X2.781 Y17.229 E110.88013
G1 X2.826 Y17.119 E110.88413
G1 X2.991 Y16.439 E110.90767
G1 X3.045 Y15.782 E110.92985
G1 X3.098 Y14.005 E110.98966
G1 X0.239 Y14.286 E111.08631
G1 X-0.001 Y14.310 E111.09442
G1 X-3.100 Y14.005 E111.19919
G1 X-3.045 Y15.782 E111.25900
G1 X-2.991 Y16.438 E111.28115
G1 X-2.854 Y17.006 E111.30080
G1 X-2.826 Y17.119 E111.30472
G1 X-2.598 Y17.688 E111.32534
G1 X-2.247 Y18.313 E111.34946
G1 X-2.569 Y17.887 E111.36743
G1 X-2.848 Y17.349 E111.38782
G1 X-3.050 Y16.723 E111.40995
G1 X-3.116 Y16.116 E111.43049
G1 X-3.172 Y14.645 E111.48001
G1 X-3.197 Y14.016 E111.50119
G1 X-6.171 Y13.114 E111.60575
G1 X-6.465 Y13.024 E111.61609
G1 X-9.385 Y11.464 E111.72747
G0 F4800 X-9.607 Y11.799
;TYPE:WALL-OUTER
G1 F1140 X-12.232 Y9.645 E111.84171
G1 X-14.385 Y7.020 E111.95593
G1 X-15.982 Y4.034 E112.06986
G1 X-16.966 Y0.790 E112.18391
G1 X-17.299 Y-2.587 E112.29807
G1 X-16.966 Y-5.964 E112.41224
G1 X-15.982 Y-9.208 E112.52629
G1 X-14.385 Y-12.194 E112.64021
G1 X-12.232 Y-14.819 E112.75443
G1 X-9.607 Y-16.973 E112.86867
G1 X-6.620 Y-18.570 E112.98263
G1 X-3.376 Y-19.554 E113.09668
G1 X0.000 Y-19.886 E113.21081
G1 X3.376 Y-19.554 E113.32494
G1 X6.620 Y-18.570 E113.43899
G1 X9.607 Y-16.973 E113.55294
G1 X12.232 Y-14.819 E113.66718
G1 X14.385 Y-12.194 E113.78140
G1 X15.982 Y-9.208 E113.89533
G1 X16.966 Y-5.964 E114.00938
G1 X17.299 Y-2.587 E114.12354
G1 X16.966 Y0.790 E114.23771
G1 X15.982 Y4.034 E114.35176
G1 X14.385 Y7.020 E114.46568
G1 X12.232 Y9.645 E114.57990
G1 X9.607 Y11.799 E114.69414
G1 X6.620 Y13.396 E114.80810
G1 X3.614 Y14.307 E114.91377
G1 X3.544 Y16.128 E114.97508
G1 X3.480 Y16.727 E114.99535
G1 X3.264 Y17.469 E115.02135
G1 X2.935 Y18.104 E115.04541
G1 X2.502 Y18.678 E115.06960
G1 X2.029 Y19.121 E115.09140
G1 X1.943 Y19.196 E115.09524
G1 X1.683 Y19.378 E115.10592
G1 X1.335 Y19.571 E115.11931
G1 X1.014 Y19.707 E115.13104
G1 X0.719 Y19.799 E115.14143
G1 X0.370 Y19.865 E115.15338
G1 X0.009 Y19.887 E115.16555
G1 X-0.379 Y19.858 E115.17864
G1 X-0.730 Y19.787 E115.19069
G1 X-1.022 Y19.696 E115.20098
G1 X-1.344 Y19.554 E115.21282
G1 X-1.939 Y19.178 E115.23650
G1 X-2.471 Y18.680 E115.26102
G1 X-2.909 Y18.100 E115.28547
G1 X-3.203 Y17.534 E115.30693
G1 X-3.236 Y17.471 E115.30932
G1 X-3.442 Y16.809 E115.33264
G1 X-3.516 Y16.133 E115.35552
G1 X-3.586 Y14.316 E115.41670
G1 X-6.620 Y13.396 E115.52336
G1 X-9.607 Y11.799 E115.63732
G0 F4800 X-9.442 Y11.547
G0 X-2.657 Y14.150
G0 X-2.686 Y14.448
G1 F1140 X-2.646 Y15.759 E115.68144
G1 X-2.595 Y16.375 E115.70224
G1 X-2.466 Y16.910 E115.72075
G1 X-2.445 Y16.995 E115.72370
G1 X-2.237 Y17.515 E115.74254
G1 X-1.896 Y18.122 E115.76597
G1 X-1.557 Y18.531 E115.78384
G1 X-1.269 Y18.804 E115.79719
G1 X-1.033 Y18.973 E115.80696
G1 X-0.813 Y19.097 E115.81545
G1 X-0.523 Y19.209 E115.82591
G1 X-0.281 Y19.268 E115.83429
G1 X0.000 Y19.291 E115.84378
G1 X0.282 Y19.268 E115.85329
G1 X0.554 Y19.202 E115.86271
G1 X0.816 Y19.096 E115.87222
G1 X1.088 Y18.938 E115.88280
G1 X1.293 Y18.786 E115.89139
G1 X1.513 Y18.585 E115.90141
G1 X1.896 Y18.123 E115.92160
G1 X2.208 Y17.584 E115.94256
G1 X2.411 Y17.077 E115.96093
G1 X2.445 Y16.995 E115.96392
G1 X2.595 Y16.375 E115.98538
G1 X2.646 Y15.759 E116.00617
G1 X2.685 Y14.448 E116.05030
G1 X0.000 Y14.712 E116.14107
G1 X-2.686 Y14.448 E116.23187
G0 F4800 X-2.894 Y13.925
;TYPE:SKIN
G1 F1320 X16.510 Y-5.480 E117.15512
G0 F4800 X16.440 Y-5.975
G1 F1320 X-3.389 Y13.854 E118.09857
G0 F4800 X-3.822 Y13.722
G1 F1320 X16.308 Y-6.409 E119.05636
G0 F4800 X16.176 Y-6.842
G1 F1320 X-4.256 Y13.590 E120.02850
G0 F4800 X-4.690 Y13.458
G1 F1320 X16.044 Y-7.276 E121.01500
G0 F4800 X15.912 Y-7.710
G1 F1320 X-5.124 Y13.326 E122.01588
G0 F4800 X-5.558 Y13.195
G1 F1320 X15.781 Y-8.144 E123.03117
G0 F4800 X15.649 Y-8.578
G1 F1320 X-5.992 Y13.063 E124.06083
G0 F4800 X-6.426 Y12.931
G1 F1320 X15.517 Y-9.012 E125.10486
G0 F4800 X15.320 Y-9.381
G1 F1320 X-6.795 Y12.734 E126.15707
G0 F4800 X-7.163 Y12.537
G1 F1320 X15.124 Y-9.750 E127.21747
G0 F4800 X14.927 Y-10.118
G1 F1320 X-7.532 Y12.341 E128.28605
G0 F4800 X-7.901 Y12.143
G1 F1320 X14.729 Y-10.487 E129.36276
G0 F4800 X14.533 Y-10.856
G1 F1320 X-8.270 Y11.947 E130.44771
G0 F4800 X-8.638 Y11.749
G1 F1320 X14.335 Y-11.224 E131.54074
G0 F4800 X14.138 Y-11.593
G1 F1320 X-9.007 Y11.552 E132.64196
G0 F4800 X-9.368 Y11.348
G1 F1320 X13.934 Y-11.954 E133.75065
G0 F4800 X13.678 Y-12.264
G1 F1320 X-9.678 Y11.093 E134.86194
G0 F4800 X-9.989 Y10.837
G1 F1320 X13.423 Y-12.575 E135.97586
G0 F4800 X13.169 Y-12.886
G1 F1320 X-10.299 Y10.582 E137.09245
G0 F4800 X-10.610 Y10.328
G1 F1320 X12.913 Y-13.196 E138.21167
G0 F4800 X12.659 Y-13.507
G1 F1320 X-10.921 Y10.072 E139.33357
G0 F4800 X-11.231 Y9.817
G1 F1320 X12.404 Y-13.818 E140.45810
G0 F4800 X12.148 Y-14.128
G1 F1320 X-11.542 Y9.562 E141.58525
G0 F4800 X-11.853 Y9.307
G1 F1320 X11.894 Y-14.439 E142.71509
G0 F4800 X11.588 Y-14.699
G1 F1320 X-12.111 Y9.000 E143.84267
G0 F4800 X-12.366 Y8.689
G1 F1320 X11.277 Y-14.954 E144.96758
G0 F4800 X10.967 Y-15.209
G1 F1320 X-12.621 Y8.378 E146.08985
G0 F4800 X-12.876 Y8.068
G1 F1320 X10.656 Y-15.464 E147.20948
G0 F4800 X10.345 Y-15.719
G1 F1320 X-13.131 Y7.757 E148.32645
G0 F4800 X-13.386 Y7.446
G1 F1320 X10.035 Y-15.974 E149.44078
G0 F4800 X9.724 Y-16.230
G1 F1320 X-13.641 Y7.136 E150.55249
G0 F4800 X-13.896 Y6.825
G1 F1320 X9.414 Y-16.485 E151.66156
G0 F4800 X9.061 Y-16.698
G1 F1320 X-14.109 Y6.472 E152.76397
G0 F4800 X-14.306 Y6.104
G1 F1320 X8.693 Y-16.895 E153.85824
G0 F4800 X8.324 Y-17.092
G1 F1320 X-14.503 Y5.735 E154.94433
G0 F4800 X-14.700 Y5.366
G1 F1320 X7.955 Y-17.289 E156.02224
G0 F4800 X7.586 Y-17.486
G1 F1320 X-14.898 Y4.998 E157.09200
G0 F4800 X-15.094 Y4.629
G1 F1320 X7.218 Y-17.683 E158.15359
G0 F4800 X6.849 Y-17.880
G1 F1320 X-15.291 Y4.261 E159.20702
G0 F4800 X-15.488 Y3.891
G1 F1320 X6.480 Y-18.077 E160.25224
G0 F4800 X6.056 Y-18.218
G1 F1320 X-15.629 Y3.467 E161.28399
G0 F4800 X-15.762 Y3.034
G1 F1320 X5.622 Y-18.350 E162.30142
G0 F4800 X5.188 Y-18.482
G1 F1320 X-15.893 Y2.600 E163.30446
G0 F4800 X-16.025 Y2.165
G1 F1320 X4.754 Y-18.613 E164.29308
G0 F4800 X4.320 Y-18.745
G1 F1320 X-16.156 Y1.731 E165.26731
G0 F4800 X-16.288 Y1.298
G1 F1320 X3.886 Y-18.877 E166.22720
G0 F4800 X3.452 Y-19.009
G1 F1320 X-16.420 Y0.864 E167.17272
G0 F4800 X-16.503 Y0.381
G1 F1320 X2.969 Y-19.091 E168.09918
G0 F4800 X2.455 Y-19.142
G1 F1320 X-16.553 Y-0.134 E169.00356
G0 F4800 X-16.604 Y-0.649
G1 F1320 X1.939 Y-19.192 E169.88582
G0 F4800 X1.424 Y-19.243
G1 F1320 X-16.655 Y-1.163 E170.74603
G0 F4800 X-16.705 Y-1.679
G1 F1320 X0.909 Y-19.294 E171.58411
G0 F4800 X0.393 Y-19.344
G1 F1320 X-16.756 Y-2.194 E172.40007
G0 F4800 X-16.780 Y-2.735
G1 F1320 X-0.147 Y-19.368 E173.19145
G0 F4800 X-0.774 Y-19.306
G1 F1320 X-16.718 Y-3.362 E173.95006
G0 F4800 X-16.657 Y-3.990
G1 F1320 X-1.402 Y-19.245 E174.67588
G0 F4800 X-2.029 Y-19.183
G1 F1320 X-16.595 Y-4.617 E175.36891
G0 F4800 X-16.534 Y-5.244
G1 F1320 X-2.655 Y-19.122 E176.02924
G0 F4800 X-3.284 Y-19.060
G1 F1320 X-16.471 Y-5.873 E176.65667
G0 F4800 X-16.224 Y-6.685
G1 F1320 X-4.096 Y-18.813 E177.23371
G0 F4800 X-4.909 Y-18.566
G1 F1320 X-15.977 Y-7.498 E177.76031
G0 F4800 X-15.731 Y-8.310
G1 F1320 X-5.721 Y-18.319 E178.23656
G0 F4800 X-6.587 Y-18.019
G1 F1320 X-15.431 Y-9.176 E178.65732
G0 F4800 X-14.782 Y-10.390
G1 F1320 X-7.801 Y-17.371 E178.98947
G0 F4800 X-9.016 Y-16.722
G1 F1320 X-14.132 Y-11.605 E179.23291
G0 F4800 X-12.031 Y-14.272
G1 F1320 X-11.685 Y-14.618 E179.24937
G0 F4800 X16.561 Y-4.965
G1 F1320 X-2.379 Y13.975 E180.15052
G0 F4800 X-1.863 Y14.026
G1 F1320 X16.612 Y-4.449 E181.02955
G0 F4800 X16.662 Y-3.934
G1 F1320 X-1.348 Y14.076 E181.88645
G0 F4800 X-0.832 Y14.126
G1 F1320 X16.713 Y-3.419 E182.72122
G0 F4800 X16.763 Y-2.904
G1 F1320 X-0.318 Y14.177 E183.53392
G0 F4800 X0.240 Y14.184
G1 F1320 X16.771 Y-2.346 E184.32043
G0 F4800 X16.709 Y-1.718
G1 F1320 X0.867 Y14.123 E185.07415
G0 F4800 X1.494 Y14.061
G1 F1320 X16.648 Y-1.091 E185.79512
G0 F4800 X16.585 Y-0.463
G1 F1320 X2.122 Y14.000 E186.48326
G0 F4800 X2.749 Y13.938
G1 F1320 X16.524 Y0.163 E187.13866
G0 F4800 X16.433 Y0.819
G1 F1320 X3.405 Y13.847 E187.75852
G0 F4800 X4.217 Y13.601
G1 F1320 X16.187 Y1.631 E188.32804
G0 F4800 X15.941 Y2.443
G1 F1320 X5.029 Y13.355 E188.84723
G0 F4800 X5.842 Y13.108
G1 F1320 X15.694 Y3.256 E189.31598
G0 F4800 X15.335 Y4.181
G1 F1320 X6.766 Y12.749 E189.72366
G0 F4800 X7.981 Y12.100
G1 F1320 X14.685 Y5.395 E190.04265
G0 F4800 X14.036 Y6.610
G1 F1320 X9.195 Y11.452 E190.27301
;LAYER:2
M117 Nb = 3 / 15
G0 F4800 X9.383 Y11.465 Z0.660
;TYPE:WALL-INNER
G1 F1680 X6.467 Y13.024 E190.38425
G1 X3.225 Y14.007 E190.49823
G1 X3.156 Y15.810 E190.55893
G1 X3.146 Y16.085 E190.56819
G1 X3.085 Y16.655 E190.58748
G1 X3.078 Y16.723 E190.58978
G1 X2.893 Y17.317 E190.61071
G1 X2.595 Y17.890 E190.63244
G1 X2.204 Y18.410 E190.65433
G1 X2.085 Y18.521 E190.65980
G1 X2.225 Y18.352 E190.66718
G1 X2.569 Y17.760 E190.69022
G1 X2.827 Y17.116 E190.71356
G1 X2.991 Y16.439 E190.73700
G1 X3.045 Y15.782 E190.75917
G1 X3.098 Y14.005 E190.81899
G1 X0.000 Y14.310 E190.92372
G1 X-3.100 Y14.005 E191.02852
G1 X-3.045 Y15.782 E191.08833
G1 X-2.991 Y16.439 E191.11051
G1 X-2.827 Y17.116 E191.13394
G1 X-2.569 Y17.760 E191.15728
G1 X-2.243 Y18.319 E191.17905
G1 X-2.567 Y17.891 E191.19711
G1 X-2.825 Y17.393 E191.21598
G1 X-2.864 Y17.318 E191.21883
G1 X-3.050 Y16.723 E191.23980
G1 X-3.116 Y16.116 E191.26034
G1 X-3.197 Y14.016 E191.33105
G1 X-6.465 Y13.024 E191.44595
G1 X-9.385 Y11.464 E191.55733
G1 X-11.947 Y9.360 E191.66886
G1 X-14.050 Y6.798 E191.78038
G1 X-15.610 Y3.879 E191.89173
G1 X-16.572 Y0.710 E192.00315
G1 X-16.897 Y-2.587 E192.11461
G1 X-16.572 Y-5.884 E192.22607
G1 X-15.610 Y-9.053 E192.33749
G1 X-14.050 Y-11.972 E192.44884
G1 X-11.947 Y-14.534 E192.56035
G1 X-9.385 Y-16.638 E192.67189
G1 X-6.465 Y-18.198 E192.78327
G1 X-3.296 Y-19.160 E192.89469
G1 X0.001 Y-19.484 E193.00615
G1 X3.296 Y-19.160 E193.11754
G1 X6.467 Y-18.198 E193.22902
G1 X9.383 Y-16.639 E193.34027
G1 X11.947 Y-14.534 E193.45188
G1 X14.051 Y-11.970 E193.56346
G1 X15.610 Y-9.055 E193.67468
G1 X16.572 Y-5.884 E193.78616
G1 X16.897 Y-2.587 E193.89763
G1 X16.841 Y-2.009 E193.91716
G1 X16.572 Y0.710 E194.00909
G1 X15.610 Y3.879 E194.12051
G1 X14.050 Y6.798 E194.23186
G1 X11.947 Y9.360 E194.34337
G1 X9.383 Y11.465 E194.45498
G0 F4800 X9.607 Y11.799
;TYPE:WALL-OUTER
G1 F1380 X6.620 Y13.396 E194.56893
G1 X3.614 Y14.307 E194.67461
G1 X3.544 Y16.128 E194.73592
G1 X3.483 Y16.696 E194.75514
G1 X3.470 Y16.809 E194.75897
G1 X3.264 Y17.469 E194.78223
G1 X2.935 Y18.104 E194.80629
G1 X2.502 Y18.678 E194.83048
G1 X2.067 Y19.087 E194.85057
G1 X1.915 Y19.216 E194.85727
G1 X1.693 Y19.372 E194.86640
G1 X1.046 Y19.697 E194.89076
G1 X0.719 Y19.799 E194.90228
G1 X0.370 Y19.865 E194.91423
G1 X0.014 Y19.886 E194.92623
G1 X-0.342 Y19.865 E194.93823
G1 X-1.024 Y19.695 E194.96188
G1 X-1.351 Y19.551 E194.97390
G1 X-1.706 Y19.343 E194.98774
G1 X-1.942 Y19.175 E194.99749
G1 X-2.473 Y18.678 E195.02196
G1 X-2.907 Y18.104 E195.04617
G1 X-3.180 Y17.578 E195.06610
G1 X-3.236 Y17.471 E195.07017
G1 X-3.442 Y16.809 E195.09349
G1 X-3.516 Y16.133 E195.11637
G1 X-3.586 Y14.316 E195.17755
G1 X-6.620 Y13.396 E195.28421
G1 X-9.607 Y11.799 E195.39817
G1 X-12.232 Y9.645 E195.51241
G1 X-14.385 Y7.020 E195.62663
G1 X-15.982 Y4.034 E195.74055
G1 X-16.966 Y0.790 E195.85460
G1 X-17.299 Y-2.587 E195.96877
G1 X-16.966 Y-5.964 E196.08293
G1 X-15.982 Y-9.208 E196.19698
G1 X-14.385 Y-12.194 E196.31091
G1 X-12.232 Y-14.819 E196.42513
G1 X-9.607 Y-16.973 E196.53937
G1 X-6.620 Y-18.570 E196.65332
G1 X-3.376 Y-19.554 E196.76737
G1 X0.001 Y-19.886 E196.88153
G1 X3.375 Y-19.554 E196.99560
G1 X6.620 Y-18.570 E197.10968
G1 X9.607 Y-16.973 E197.22363
G1 X12.232 Y-14.819 E197.33787
G1 X14.385 Y-12.194 E197.45209
G1 X15.982 Y-9.208 E197.56602
G1 X16.966 Y-5.964 E197.68007
G1 X17.299 Y-2.587 E197.79423
G1 X16.966 Y0.789 E197.90837
G1 X15.982 Y4.034 E198.02245
G1 X14.385 Y7.020 E198.13637
G1 X12.232 Y9.645 E198.25059
G1 X9.607 Y11.799 E198.36483
G0 F4800 X9.443 Y11.546
G0 X3.261 Y14.035
G0 X2.984 Y14.455
G0 X2.685 Y14.448
G1 F1380 X0.000 Y14.712 E198.45560
G1 X-2.686 Y14.448 E198.54640
G1 X-2.646 Y15.759 E198.59053
G1 X-2.595 Y16.375 E198.61133
G1 X-2.445 Y16.994 E198.63276
G1 X-2.208 Y17.584 E198.65415
G1 X-1.895 Y18.123 E198.67512
G1 X-1.509 Y18.589 E198.69547
G1 X-1.066 Y18.955 E198.71481
G1 X-0.814 Y19.097 E198.72454
G1 X-0.553 Y19.202 E198.73400
G1 X-0.281 Y19.268 E198.74342
G1 X0.000 Y19.291 E198.75291
G1 X0.282 Y19.268 E198.76242
G1 X0.554 Y19.202 E198.77184
G1 X0.817 Y19.096 E198.78138
G1 X1.108 Y18.924 E198.79275
G1 X1.510 Y18.589 E198.81036
G1 X1.896 Y18.123 E198.83072
G1 X2.208 Y17.584 E198.85167
G1 X2.445 Y16.994 E198.87306
G1 X2.595 Y16.375 E198.89449
G1 X2.646 Y15.759 E198.91528
G1 X2.685 Y14.448 E198.95941
G0 F4800 X2.893 Y13.924
;TYPE:SKIN
G1 F1680 X-16.511 Y-5.480 E199.88264
G0 F4800 X-16.440 Y-5.975
G1 F1680 X3.387 Y13.852 E200.82599
G0 F4800 X3.821 Y13.721
G1 F1680 X-16.309 Y-6.409 E201.78376
G0 F4800 X-16.177 Y-6.843
G1 F1680 X4.256 Y13.589 E202.75592
G0 F4800 X4.690 Y13.458
G1 F1680 X-16.045 Y-7.277 E203.74247
G0 F4800 X-15.913 Y-7.710
G1 F1680 X5.124 Y13.326 E204.74337
G0 F4800 X5.557 Y13.194
G1 F1680 X-15.781 Y-8.145 E205.75864
G0 F4800 X-15.650 Y-8.579
G1 F1680 X5.992 Y13.063 E206.78834
G0 F4800 X6.426 Y12.931
G1 F1680 X-15.518 Y-9.012 E207.83240
G0 F4800 X-15.321 Y-9.381
G1 F1680 X6.795 Y12.734 E208.88463
G0 F4800 X7.163 Y12.537
G1 F1680 X-15.125 Y-9.751 E209.94508
G0 F4800 X-14.927 Y-10.119
G1 F1680 X7.532 Y12.340 E211.01366
G0 F4800 X7.901 Y12.143
G1 F1680 X-14.730 Y-10.487 E212.09040
G0 F4800 X-14.533 Y-10.856
G1 F1680 X8.269 Y11.946 E213.17530
G0 F4800 X8.638 Y11.749
G1 F1680 X-14.336 Y-11.225 E214.26838
G0 F4800 X-14.139 Y-11.593
G1 F1680 X9.006 Y11.552 E215.36960
G0 F4800 X9.367 Y11.346
G1 F1680 X-13.934 Y-11.955 E216.47824
G0 F4800 X-13.679 Y-12.265
G1 F1680 X9.677 Y11.091 E217.58950
G0 F4800 X9.988 Y10.837
G1 F1680 X-13.424 Y-12.575 E218.70342
G0 F4800 X-13.169 Y-12.887
G1 F1680 X10.299 Y10.581 E219.82001
G0 F4800 X10.609 Y10.326
G1 F1680 X-12.914 Y-13.197 E220.93921
G0 F4800 X-12.660 Y-13.508
G1 F1680 X10.920 Y10.072 E222.06113
G0 F4800 X11.230 Y9.816
G1 F1680 X-12.404 Y-13.818 E223.18562
G0 F4800 X-12.149 Y-14.129
G1 F1680 X11.541 Y9.561 E224.31276
G0 F4800 X11.852 Y9.306
G1 F1680 X-11.894 Y-14.440 E225.44258
G0 F4800 X-11.587 Y-14.698
G1 F1680 X12.112 Y9.000 E226.57013
G0 F4800 X12.367 Y8.690
G1 F1680 X-11.276 Y-14.953 E227.69505
G0 F4800 X-10.966 Y-15.209
G1 F1680 X12.621 Y8.379 E228.81732
G0 F4800 X12.877 Y8.068
G1 F1680 X-10.655 Y-15.463 E229.93693
G0 F4800 X-10.344 Y-15.718
G1 F1680 X13.132 Y7.758 E231.05390
G0 F4800 X13.386 Y7.447
G1 F1680 X-10.034 Y-15.974 E232.16822
G0 F4800 X-9.724 Y-16.229
G1 F1680 X13.642 Y7.136 E233.27993
G0 F4800 X13.897 Y6.826
G1 F1680 X-9.413 Y-16.484 E234.38900
G0 F4800 X-9.060 Y-16.697
G1 F1680 X14.110 Y6.473 E235.49141
G0 F4800 X14.307 Y6.105
G1 F1680 X-8.692 Y-16.894 E236.58569
G0 F4800 X-8.323 Y-17.091
G1 F1680 X14.504 Y5.736 E237.67177
G0 F4800 X14.701 Y5.367
G1 F1680 X-7.954 Y-17.288 E238.74968
G0 F4800 X-7.586 Y-17.486
G1 F1680 X14.898 Y4.999 E239.81947
G0 F4800 X15.095 Y4.630
G1 F1680 X-7.217 Y-17.682 E240.88106
G0 F4800 X-6.849 Y-17.879
G1 F1680 X15.292 Y4.261 E241.93449
G0 F4800 X15.489 Y3.892
G1 F1680 X-6.479 Y-18.076 E242.97970
G0 F4800 X-6.055 Y-18.217
G1 F1680 X15.630 Y3.468 E244.01146
G0 F4800 X15.762 Y3.034
G1 F1680 X-5.621 Y-18.349 E245.02884
G0 F4800 X-5.188 Y-18.481
G1 F1680 X15.894 Y2.600 E246.03188
G0 F4800 X16.025 Y2.166
G1 F1680 X-4.753 Y-18.613 E247.02051
G0 F4800 X-4.319 Y-18.744
G1 F1680 X16.158 Y1.733 E247.99478
G0 F4800 X16.289 Y1.298
G1 F1680 X-3.886 Y-18.876 E248.95467
G0 F4800 X-3.452 Y-19.008
G1 F1680 X16.421 Y0.864 E249.90019
G0 F4800 X16.504 Y0.382
G1 F1680 X-2.969 Y-19.091 E250.82669
G0 F4800 X-2.454 Y-19.142
G1 F1680 X16.554 Y-0.132 E251.73113
G0 F4800 X16.605 Y-0.647
G1 F1680 X-1.938 Y-19.192 E252.61343
G0 F4800 X-1.423 Y-19.242
G1 F1680 X16.655 Y-1.163 E253.47359
G0 F4800 X16.706 Y-1.677
G1 F1680 X-0.908 Y-19.293 E254.31170
G0 F4800 X-0.393 Y-19.343
G1 F1680 X16.757 Y-2.193 E255.12768
G0 F4800 X16.781 Y-2.735
G1 F1680 X0.148 Y-19.367 E255.91904
G0 F4800 X0.775 Y-19.306
G1 F1680 X16.719 Y-3.362 E256.67764
G0 F4800 X16.658 Y-3.989
G1 F1680 X1.402 Y-19.244 E257.40349
G0 F4800 X2.029 Y-19.183
G1 F1680 X16.596 Y-4.616 E258.09657
G0 F4800 X16.534 Y-5.243
G1 F1680 X2.656 Y-19.122 E258.75690
G0 F4800 X3.285 Y-19.059
G1 F1680 X16.472 Y-5.872 E259.38433
G0 F4800 X16.225 Y-6.684
G1 F1680 X4.097 Y-18.812 E259.96137
G0 F4800 X4.910 Y-18.565
G1 F1680 X15.978 Y-7.497 E260.48797
G0 F4800 X15.731 Y-8.309
G1 F1680 X5.722 Y-18.319 E260.96422
G0 F4800 X6.587 Y-18.019
G1 F1680 X15.432 Y-9.174 E261.38505
G0 F4800 X14.782 Y-10.390
G1 F1680 X7.802 Y-17.370 E261.71716
G0 F4800 X9.017 Y-16.720
G1 F1680 X14.131 Y-11.607 E261.96045
G0 F4800 X12.031 Y-14.272
G1 F1680 X11.686 Y-14.618 E261.97689
G0 F4800 X-16.562 Y-4.966
G1 F1680 X2.378 Y13.974 E262.87804
G0 F4800 X1.863 Y14.025
G1 F1680 X-16.612 Y-4.450 E263.75706
G0 F4800 X-16.662 Y-3.935
G1 F1680 X1.347 Y14.075 E264.61394
G0 F4800 X0.832 Y14.126
G1 F1680 X-16.713 Y-3.420 E265.44874
G0 F4800 X-16.764 Y-2.904
G1 F1680 X0.317 Y14.176 E266.26142
G0 F4800 X-0.240 Y14.184
G1 F1680 X-16.771 Y-2.346 E267.04792
G0 F4800 X-16.710 Y-1.719
G1 F1680 X-0.867 Y14.123 E267.80169
G0 F4800 X-1.494 Y14.061
G1 F1680 X-16.648 Y-1.092 E268.52269
G0 F4800 X-16.586 Y-0.464
G1 F1680 X-2.121 Y14.000 E269.21089
G0 F4800 X-2.748 Y13.939
G1 F1680 X-16.525 Y0.162 E269.86639
G0 F4800 X-16.434 Y0.818
G1 F1680 X-3.404 Y13.848 E270.48635
G0 F4800 X-4.217 Y13.601
G1 F1680 X-16.188 Y1.630 E271.05592
G0 F4800 X-15.941 Y2.443
G1 F1680 X-5.029 Y13.355 E271.57510
G0 F4800 X-5.842 Y13.108
G1 F1680 X-15.694 Y3.255 E272.04387
G0 F4800 X-15.335 Y4.181
G1 F1680 X-6.767 Y12.749 E272.45153
G0 F4800 X-7.981 Y12.100
G1 F1680 X-14.685 Y5.395 E272.77053
G0 F4800 X-14.036 Y6.610
G1 F1680 X-9.195 Y11.451 E273.00086
;LAYER:3
M117 Nb = 4 / 15
G0 F4800 X-9.385 Y11.464 Z0.860
;TYPE:WALL-INNER
G1 F2040 X-11.947 Y9.360 E273.11239
G1 X-14.050 Y6.798 E273.22391
G1 X-15.610 Y3.879 E273.33526
G1 X-16.572 Y0.710 E273.44668
G1 X-16.897 Y-2.587 E273.55814
G1 X-16.572 Y-5.884 E273.66960
G1 X-15.610 Y-9.053 E273.78102
G1 X-14.050 Y-11.972 E273.89237
G1 X-11.947 Y-14.534 E274.00388
G1 X-9.385 Y-16.638 E274.11542
G1 X-6.465 Y-18.198 E274.22680
G1 X-3.296 Y-19.160 E274.33822
G1 X0.000 Y-19.484 E274.44964
G1 X3.296 Y-19.160 E274.56107
G1 X6.465 Y-18.198 E274.67249
G1 X9.385 Y-16.638 E274.78387
G1 X11.947 Y-14.534 E274.89540
G1 X14.050 Y-11.972 E275.00692
G1 X15.610 Y-9.053 E275.11827
G1 X16.572 Y-5.884 E275.22969
G1 X16.897 Y-2.587 E275.34115
G1 X16.572 Y0.710 E275.45261
G1 X15.610 Y3.879 E275.56403
G1 X14.050 Y6.798 E275.67538
G1 X11.947 Y9.360 E275.78689
G1 X9.385 Y11.464 E275.89843
G1 X6.465 Y13.024 E276.00981
G1 X3.225 Y14.007 E276.12372
G1 X3.160 Y15.697 E276.18062
G1 X3.091 Y16.605 E276.21126
G1 X3.078 Y16.723 E276.21525
G1 X2.893 Y17.317 E276.23618
G1 X2.595 Y17.890 E276.25791
G1 X2.204 Y18.410 E276.27980
G1 X2.085 Y18.521 E276.28527
G1 X2.225 Y18.352 E276.29266
G1 X2.569 Y17.760 E276.31569
G1 X2.827 Y17.116 E276.33903
G1 X2.991 Y16.439 E276.36247
G1 X3.045 Y15.782 E276.38465
G1 X3.098 Y14.005 E276.44446
G1 X-0.001 Y14.310 E276.54922
G1 X-0.569 Y14.255 E276.56842
G1 X-3.100 Y14.005 E276.65399
G1 X-3.045 Y15.782 E276.71380
G1 X-2.991 Y16.439 E276.73598
G1 X-2.827 Y17.116 E276.75942
G1 X-2.569 Y17.760 E276.78276
G1 X-2.245 Y18.316 E276.80441
G1 X-2.569 Y17.887 E276.82249
G1 X-2.802 Y17.437 E276.83954
G1 X-2.864 Y17.320 E276.84400
G1 X-3.050 Y16.723 E276.86503
G1 X-3.116 Y16.116 E276.88558
G1 X-3.163 Y14.870 E276.92753
G1 X-3.197 Y14.016 E276.95628
G1 X-6.465 Y13.024 E277.07118
G1 X-9.385 Y11.464 E277.18256
G0 F4800 X-9.607 Y11.799
;TYPE:WALL-OUTER
G1 F1560 X-12.232 Y9.645 E277.29680
G1 X-14.385 Y7.020 E277.41102
G1 X-15.982 Y4.034 E277.52495
G1 X-16.966 Y0.790 E277.63900
G1 X-17.299 Y-2.587 E277.75316
G1 X-16.966 Y-5.964 E277.86733
G1 X-15.982 Y-9.208 E277.98138
G1 X-14.385 Y-12.194 E278.09530
G1 X-12.232 Y-14.819 E278.20952
G1 X-9.607 Y-16.973 E278.32376
G1 X-6.620 Y-18.570 E278.43772
G1 X-3.376 Y-19.554 E278.55177
G1 X0.000 Y-19.886 E278.66590
G1 X3.376 Y-19.554 E278.78003
G1 X6.620 Y-18.570 E278.89408
G1 X9.607 Y-16.973 E279.00803
G1 X12.232 Y-14.819 E279.12227
G1 X14.385 Y-12.194 E279.23649
G1 X15.982 Y-9.208 E279.35042
G1 X16.966 Y-5.964 E279.46447
G1 X17.299 Y-2.587 E279.57863
G1 X16.966 Y0.790 E279.69280
G1 X15.982 Y4.034 E279.80685
G1 X14.385 Y7.020 E279.92077
G1 X12.232 Y9.645 E280.03499
G1 X9.607 Y11.799 E280.14923
G1 X6.620 Y13.396 E280.26319
G1 X3.614 Y14.307 E280.36886
G1 X3.560 Y15.712 E280.41617
G1 X3.489 Y16.650 E280.44781
G1 X3.470 Y16.809 E280.45320
G1 X3.264 Y17.469 E280.47646
G1 X2.935 Y18.104 E280.50052
G1 X2.502 Y18.678 E280.52471
G1 X2.109 Y19.046 E280.54283
G1 X1.684 Y19.376 E280.56093
G1 X1.046 Y19.697 E280.58496
G1 X0.719 Y19.799 E280.59648
G1 X0.370 Y19.865 E280.60843
G1 X0.012 Y19.886 E280.62050
G1 X-0.432 Y19.849 E280.63549
G1 X-0.685 Y19.800 E280.64416
G1 X-1.022 Y19.696 E280.65602
G1 X-1.346 Y19.553 E280.66794
G1 X-1.664 Y19.373 E280.68023
G1 X-1.939 Y19.178 E280.69157
G1 X-2.471 Y18.680 E280.71609
G1 X-2.909 Y18.100 E280.74054
G1 X-3.157 Y17.622 E280.75866
G1 X-3.236 Y17.471 E280.76439
G1 X-3.442 Y16.809 E280.78772
G1 X-3.517 Y16.127 E280.81080
G1 X-3.585 Y14.316 E280.87177
G1 X-6.620 Y13.396 E280.97847
G1 X-9.607 Y11.799 E281.09242
G0 F4800 X-9.444 Y11.545
G0 X-2.659 Y14.151
G0 X-2.686 Y14.448
G1 F1560 X-2.646 Y15.759 E281.13655
G1 X-2.595 Y16.375 E281.15735
G1 X-2.445 Y16.994 E281.17877
G1 X-2.208 Y17.584 E281.20017
G1 X-1.895 Y18.123 E281.22113
G1 X-1.512 Y18.585 E281.24132
G1 X-1.293 Y18.786 E281.25133
G1 X-1.056 Y18.961 E281.26124
G1 X-0.560 Y19.200 E281.27976
G1 X-0.281 Y19.268 E281.28942
G1 X0.000 Y19.291 E281.29891
G1 X0.282 Y19.268 E281.30843
G1 X0.554 Y19.202 E281.31784
G1 X0.815 Y19.097 E281.32731
G1 X1.062 Y18.957 E281.33686
G1 X1.293 Y18.786 E281.34653
G1 X1.513 Y18.585 E281.35655
G1 X1.896 Y18.123 E281.37674
G1 X2.208 Y17.584 E281.39770
G1 X2.445 Y16.994 E281.41909
G1 X2.595 Y16.375 E281.44052
G1 X2.646 Y15.759 E281.46131
G1 X2.685 Y14.448 E281.50544
G1 X-0.001 Y14.712 E281.59624
G1 X-2.686 Y14.448 E281.68701
G0 F4800 X-2.894 Y13.925
;TYPE:SKIN
G1 F2040 X16.510 Y-5.480 E282.61026
G0 F4800 X16.440 Y-5.975
G1 F2040 X-3.389 Y13.854 E283.55370
G0 F4800 X-3.822 Y13.722
G1 F2040 X16.308 Y-6.409 E284.51150
G0 F4800 X16.176 Y-6.842
G1 F2040 X-4.256 Y13.590 E285.48363
G0 F4800 X-4.690 Y13.458
G1 F2040 X16.044 Y-7.276 E286.47014
G0 F4800 X15.912 Y-7.710
G1 F2040 X-5.124 Y13.326 E287.47101
G0 F4800 X-5.558 Y13.195
G1 F2040 X15.781 Y-8.144 E288.48631
G0 F4800 X15.649 Y-8.578
G1 F2040 X-5.992 Y13.063 E289.51597
G0 F4800 X-6.426 Y12.931
G1 F2040 X15.517 Y-9.012 E290.56000
G0 F4800 X15.320 Y-9.381
G1 F2040 X-6.795 Y12.734 E291.61221
G0 F4800 X-7.163 Y12.537
G1 F2040 X15.124 Y-9.750 E292.67260
G0 F4800 X14.927 Y-10.118
G1 F2040 X-7.532 Y12.341 E293.74118
G0 F4800 X-7.901 Y12.143
G1 F2040 X14.729 Y-10.487 E294.81790
G0 F4800 X14.533 Y-10.856
G1 F2040 X-8.270 Y11.947 E295.90285
G0 F4800 X-8.638 Y11.749
G1 F2040 X14.335 Y-11.224 E296.99588
G0 F4800 X14.138 Y-11.593
G1 F2040 X-9.007 Y11.552 E298.09710
G0 F4800 X-9.368 Y11.348
G1 F2040 X13.934 Y-11.954 E299.20579
G0 F4800 X13.678 Y-12.264
G1 F2040 X-9.678 Y11.093 E300.31707
G0 F4800 X-9.989 Y10.837
G1 F2040 X13.423 Y-12.575 E301.43100
G0 F4800 X13.169 Y-12.886
G1 F2040 X-10.299 Y10.582 E302.54758
G0 F4800 X-10.610 Y10.328
G1 F2040 X12.913 Y-13.196 E303.66681
G0 F4800 X12.659 Y-13.507
G1 F2040 X-10.921 Y10.072 E304.78870
G0 F4800 X-11.231 Y9.817
G1 F2040 X12.404 Y-13.818 E305.91324
G0 F4800 X12.148 Y-14.128
G1 F2040 X-11.542 Y9.562 E307.04039
G0 F4800 X-11.853 Y9.307
G1 F2040 X11.894 Y-14.439 E308.17023
G0 F4800 X11.588 Y-14.699
G1 F2040 X-12.111 Y9.000 E309.29780
G0 F4800 X-12.366 Y8.689
G1 F2040 X11.277 Y-14.954 E310.42272
G0 F4800 X10.967 Y-15.209
G1 F2040 X-12.621 Y8.378 E311.54499
G0 F4800 X-12.876 Y8.068
G1 F2040 X10.656 Y-15.464 E312.66462
G0 F4800 X10.345 Y-15.719
G1 F2040 X-13.131 Y7.757 E313.78159
G0 F4800 X-13.386 Y7.446
G1 F2040 X10.035 Y-15.974 E314.89592
G0 F4800 X9.724 Y-16.230
G1 F2040 X-13.641 Y7.136 E316.00763
G0 F4800 X-13.896 Y6.825
G1 F2040 X9.414 Y-16.485 E317.11670
G0 F4800 X9.061 Y-16.698
G1 F2040 X-14.109 Y6.472 E318.21911
G0 F4800 X-14.306 Y6.104
G1 F2040 X8.693 Y-16.895 E319.31338
G0 F4800 X8.324 Y-17.092
G1 F2040 X-14.503 Y5.735 E320.39947
G0 F4800 X-14.700 Y5.366
G1 F2040 X7.955 Y-17.289 E321.47737
G0 F4800 X7.586 Y-17.486
G1 F2040 X-14.898 Y4.998 E322.54714
G0 F4800 X-15.094 Y4.629
G1 F2040 X7.218 Y-17.683 E323.60873
G0 F4800 X6.849 Y-17.880
G1 F2040 X-15.291 Y4.261 E324.66215
G0 F4800 X-15.488 Y3.891
G1 F2040 X6.480 Y-18.077 E325.70737
G0 F4800 X6.056 Y-18.218
G1 F2040 X-15.629 Y3.467 E326.73913
G0 F4800 X-15.761 Y3.033
G1 F2040 X5.622 Y-18.350 E327.75651
G0 F4800 X5.188 Y-18.482
G1 F2040 X-15.892 Y2.599 E328.75950
G0 F4800 X-16.025 Y2.165
G1 F2040 X4.754 Y-18.613 E329.74813
G0 F4800 X4.320 Y-18.745
G1 F2040 X-16.156 Y1.731 E330.72236
G0 F4800 X-16.288 Y1.298
G1 F2040 X3.886 Y-18.877 E331.68224
G0 F4800 X3.452 Y-19.009
G1 F2040 X-16.420 Y0.864 E332.62776
G0 F4800 X-16.503 Y0.381
G1 F2040 X2.969 Y-19.091 E333.55422
G0 F4800 X2.454 Y-19.142
G1 F2040 X-16.553 Y-0.134 E334.45858
G0 F4800 X-16.604 Y-0.649
G1 F2040 X1.939 Y-19.192 E335.34084
G0 F4800 X1.424 Y-19.243
G1 F2040 X-16.655 Y-1.163 E336.20105
G0 F4800 X-16.705 Y-1.679
G1 F2040 X0.908 Y-19.293 E337.03908
G0 F4800 X0.393 Y-19.343
G1 F2040 X-16.756 Y-2.194 E337.85502
G0 F4800 X-16.780 Y-2.735
G1 F2040 X-0.148 Y-19.367 E338.64635
G0 F4800 X-0.775 Y-19.306
G1 F2040 X-16.718 Y-3.362 E339.40493
G0 F4800 X-16.657 Y-3.990
G1 F2040 X-1.402 Y-19.245 E340.13075
G0 F4800 X-2.029 Y-19.183
G1 F2040 X-16.595 Y-4.617 E340.82379
G0 F4800 X-16.534 Y-5.244
G1 F2040 X-2.656 Y-19.122 E341.48409
G0 F4800 X-3.284 Y-19.060
G1 F2040 X-16.471 Y-5.873 E342.11152
G0 F4800 X-16.224 Y-6.685
G1 F2040 X-4.096 Y-18.813 E342.68856
G0 F4800 X-4.909 Y-18.566
G1 F2040 X-15.977 Y-7.498 E343.21517
G0 F4800 X-15.731 Y-8.310
G1 F2040 X-5.721 Y-18.319 E343.69141
G0 F4800 X-6.587 Y-18.019
G1 F2040 X-15.431 Y-9.176 E344.11218
G0 F4800 X-14.781 Y-10.391
G1 F2040 X-7.801 Y-17.371 E344.44428
G0 F4800 X-9.016 Y-16.722
G1 F2040 X-14.131 Y-11.607 E344.68764
G0 F4800 X-12.030 Y-14.273
G1 F2040 X-11.685 Y-14.618 E344.70406
G0 F4800 X16.561 Y-4.965
G1 F2040 X-2.379 Y13.975 E345.60521
G0 F4800 X-1.863 Y14.026
G1 F2040 X16.612 Y-4.449 E346.48423
G0 F4800 X16.662 Y-3.934
G1 F2040 X-1.348 Y14.076 E347.34113
G0 F4800 X-0.832 Y14.126
G1 F2040 X16.713 Y-3.419 E348.17591
G0 F4800 X16.763 Y-2.904
G1 F2040 X-0.318 Y14.177 E348.98861
G0 F4800 X0.240 Y14.184
G1 F2040 X16.771 Y-2.346 E349.77512
G0 F4800 X16.709 Y-1.718
G1 F2040 X0.867 Y14.123 E350.52884
G0 F4800 X1.494 Y14.061
G1 F2040 X16.648 Y-1.091 E351.24981
G0 F4800 X16.585 Y-0.463
G1 F2040 X2.122 Y14.000 E351.93794
G0 F4800 X2.749 Y13.938
G1 F2040 X16.524 Y0.163 E352.59335
G0 F4800 X16.433 Y0.819
G1 F2040 X3.405 Y13.847 E353.21321
G0 F4800 X4.217 Y13.601
G1 F2040 X16.187 Y1.631 E353.78273
G0 F4800 X15.941 Y2.443
G1 F2040 X5.029 Y13.355 E354.30191
G0 F4800 X5.842 Y13.108
G1 F2040 X15.694 Y3.256 E354.77066
G0 F4800 X15.334 Y4.181
G1 F2040 X6.766 Y12.749 E355.17832
G0 F4800 X7.981 Y12.100
G1 F2040 X14.685 Y5.396 E355.49729
G0 F4800 X14.036 Y6.611
G1 F2040 X9.195 Y11.452 E355.72762
;LAYER:4
M117 Nb = 5 / 15
G0 F4800 X9.385 Y11.464 Z1.060
;TYPE:WALL-INNER
G1 F2400 X6.465 Y13.024 E355.83900
G1 X3.225 Y14.007 E355.95292
G1 X3.144 Y16.104 E356.02352
G1 X3.076 Y16.728 E356.04464
G1 X2.893 Y17.317 E356.06539
G1 X2.595 Y17.890 E356.08712
G1 X2.204 Y18.410 E356.10900
G1 X2.086 Y18.520 E356.11443
G1 X2.225 Y18.352 E356.12177
G1 X2.569 Y17.760 E356.14480
G1 X2.827 Y17.116 E356.16814
G1 X2.991 Y16.439 E356.19158
G1 X3.045 Y15.782 E356.21376
G1 X3.098 Y14.005 E356.27357
G1 X0.734 Y14.237 E356.35348
G1 X0.000 Y14.310 E356.37830
G1 X-3.100 Y14.005 E356.48310
G1 X-3.045 Y15.782 E356.54291
G1 X-2.991 Y16.439 E356.56509
G1 X-2.827 Y17.116 E356.58853
G1 X-2.569 Y17.760 E356.61187
G1 X-2.245 Y18.317 E356.63354
G1 X-2.567 Y17.890 E356.65154
G1 X-2.864 Y17.319 E356.67319
G1 X-3.050 Y16.723 E356.69420
G1 X-3.116 Y16.116 E356.71474
G1 X-3.196 Y14.016 E356.78544
G1 X-6.465 Y13.024 E356.90037
G1 X-9.385 Y11.464 E357.01175
G1 X-11.947 Y9.360 E357.12329
G1 X-14.050 Y6.798 E357.23480
G1 X-15.610 Y3.879 E357.34615
G1 X-16.572 Y0.710 E357.45757
G1 X-16.897 Y-2.587 E357.56904
G1 X-16.572 Y-5.884 E357.68050
G1 X-15.610 Y-9.053 E357.79192
G1 X-14.050 Y-11.972 E357.90327
G1 X-11.947 Y-14.534 E358.01478
G1 X-9.385 Y-16.638 E358.12632
G1 X-6.465 Y-18.198 E358.23770
G1 X-3.296 Y-19.160 E358.34912
G1 X0.000 Y-19.484 E358.46054
G1 X3.296 Y-19.160 E358.57196
G1 X6.465 Y-18.198 E358.68338
G1 X9.385 Y-16.638 E358.79476
G1 X11.947 Y-14.534 E358.90630
G1 X14.050 Y-11.972 E359.01781
G1 X15.610 Y-9.053 E359.12916
G1 X16.572 Y-5.884 E359.24058
G1 X16.897 Y-2.587 E359.35205
G1 X16.572 Y0.710 E359.46351
G1 X15.610 Y3.879 E359.57493
G1 X14.050 Y6.798 E359.68628
G1 X11.947 Y9.360 E359.79779
G1 X9.385 Y11.464 E359.90933
G0 F4800 X9.607 Y11.799
;TYPE:WALL-OUTER
G1 F1800 X6.620 Y13.396 E360.02328
G1 X3.614 Y14.307 E360.12896
G1 X3.544 Y16.127 E360.19023
G1 X3.470 Y16.809 E360.21331
G1 X3.264 Y17.469 E360.23657
G1 X2.935 Y18.104 E360.26063
G1 X2.502 Y18.678 E360.28482
G1 X2.144 Y19.013 E360.30132
G1 X1.680 Y19.380 E360.32122
G1 X1.372 Y19.555 E360.33314
G1 X1.056 Y19.694 E360.34475
G1 X0.719 Y19.799 E360.35663
G1 X0.370 Y19.865 E360.36858
G1 X0.014 Y19.886 E360.38058
G1 X-0.341 Y19.865 E360.39254
G1 X-0.692 Y19.798 E360.40456
G1 X-1.017 Y19.698 E360.41600
G1 X-1.558 Y19.433 E360.43627
G1 X-1.945 Y19.173 E360.45196
G1 X-2.471 Y18.680 E360.47621
G1 X-2.909 Y18.101 E360.50064
G1 X-3.236 Y17.469 E360.52458
G1 X-3.442 Y16.809 E360.54784
G1 X-3.517 Y16.127 E360.57092
G1 X-3.585 Y14.316 E360.63189
G1 X-6.620 Y13.396 E360.73859
G1 X-9.607 Y11.799 E360.85254
G1 X-12.232 Y9.645 E360.96678
G1 X-14.385 Y7.020 E361.08100
G1 X-15.982 Y4.034 E361.19493
G1 X-16.966 Y0.790 E361.30898
G1 X-17.299 Y-2.587 E361.42315
G1 X-16.966 Y-5.964 E361.53731
G1 X-15.982 Y-9.208 E361.65136
G1 X-14.385 Y-12.194 E361.76529
G1 X-12.232 Y-14.819 E361.87951
G1 X-9.607 Y-16.973 E361.99375
G1 X-6.620 Y-18.570 E362.10770
G1 X-3.376 Y-19.554 E362.22175
G1 X0.000 Y-19.886 E362.33588
G1 X3.376 Y-19.554 E362.45001
G1 X6.620 Y-18.570 E362.56406
G1 X9.607 Y-16.973 E362.67801
G1 X12.232 Y-14.819 E362.79225
G1 X14.385 Y-12.194 E362.90647
G1 X15.982 Y-9.208 E363.02040
G1 X16.966 Y-5.964 E363.13445
G1 X17.299 Y-2.587 E363.24861
G1 X16.966 Y0.790 E363.36278
G1 X15.982 Y4.034 E363.47683
G1 X14.385 Y7.020 E363.59075
G1 X12.232 Y9.645 E363.70497
G1 X9.607 Y11.799 E363.81922
G0 F4800 X9.443 Y11.546
G0 X3.261 Y14.035
G0 X2.984 Y14.455
G0 X2.685 Y14.448
G1 F1800 X0.000 Y14.712 E363.90998
G1 X-2.686 Y14.448 E364.00079
G1 X-2.646 Y15.759 E364.04491
G1 X-2.595 Y16.375 E364.06571
G1 X-2.445 Y16.994 E364.08714
G1 X-2.208 Y17.584 E364.10853
G1 X-1.895 Y18.123 E364.12950
G1 X-1.509 Y18.589 E364.14986
G1 X-1.061 Y18.959 E364.16940
G1 X-0.560 Y19.200 E364.18811
G1 X-0.281 Y19.268 E364.19777
G1 X0.000 Y19.291 E364.20725
G1 X0.282 Y19.268 E364.21677
G1 X0.554 Y19.202 E364.22619
G1 X0.815 Y19.097 E364.23565
G1 X1.062 Y18.957 E364.24521
G1 X1.293 Y18.786 E364.25488
G1 X1.513 Y18.585 E364.26490
G1 X1.896 Y18.123 E364.28509
G1 X2.208 Y17.584 E364.30604
G1 X2.445 Y16.994 E364.32744
G1 X2.595 Y16.375 E364.34886
G1 X2.646 Y15.759 E364.36966
G1 X2.685 Y14.448 E364.41379
G0 F4800 X2.893 Y13.924
;TYPE:SKIN
G1 F2400 X-16.511 Y-5.480 E365.33701
G0 F4800 X-16.440 Y-5.975
G1 F2400 X3.387 Y13.852 E366.28036
G0 F4800 X3.821 Y13.720
G1 F2400 X-16.309 Y-6.409 E367.23811
G0 F4800 X-16.177 Y-6.843
G1 F2400 X4.255 Y13.589 E368.21024
G0 F4800 X4.689 Y13.457
G1 F2400 X-16.045 Y-7.277 E369.19675
G0 F4800 X-15.913 Y-7.710
G1 F2400 X5.123 Y13.326 E370.19762
G0 F4800 X5.557 Y13.193
G1 F2400 X-15.781 Y-8.145 E371.21287
G0 F4800 X-15.650 Y-8.579
G1 F2400 X5.991 Y13.062 E372.24253
G0 F4800 X6.425 Y12.930
G1 F2400 X-15.518 Y-9.012 E373.28653
G0 F4800 X-15.321 Y-9.381
G1 F2400 X6.794 Y12.734 E374.33875
G0 F4800 X7.162 Y12.537
G1 F2400 X-15.125 Y-9.751 E375.39917
G0 F4800 X-14.927 Y-10.119
G1 F2400 X7.532 Y12.340 E376.46775
G0 F4800 X7.900 Y12.143
G1 F2400 X-14.730 Y-10.487 E377.54446
G0 F4800 X-14.533 Y-10.856
G1 F2400 X8.269 Y11.946 E378.62936
G0 F4800 X8.638 Y11.749
G1 F2400 X-14.336 Y-11.225 E379.72245
G0 F4800 X-14.139 Y-11.593
G1 F2400 X9.006 Y11.552 E380.82366
G0 F4800 X9.367 Y11.347
G1 F2400 X-13.934 Y-11.955 E381.93233
G0 F4800 X-13.679 Y-12.265
G1 F2400 X9.678 Y11.092 E383.04364
G0 F4800 X9.988 Y10.837
G1 F2400 X-13.424 Y-12.575 E384.15756
G0 F4800 X-13.169 Y-12.887
G1 F2400 X10.299 Y10.581 E385.27415
G0 F4800 X10.610 Y10.327
G1 F2400 X-12.914 Y-13.197 E386.39340
G0 F4800 X-12.660 Y-13.508
G1 F2400 X10.920 Y10.072 E387.51531
G0 F4800 X11.230 Y9.816
G1 F2400 X-12.404 Y-13.818 E388.63980
G0 F4800 X-12.149 Y-14.129
G1 F2400 X11.541 Y9.561 E389.76695
G0 F4800 X11.852 Y9.306
G1 F2400 X-11.894 Y-14.440 E390.89676
G0 F4800 X-11.587 Y-14.698
G1 F2400 X12.112 Y9.000 E392.02432
G0 F4800 X12.367 Y8.690
G1 F2400 X-11.276 Y-14.953 E393.14923
G0 F4800 X-10.966 Y-15.209
G1 F2400 X12.621 Y8.379 E394.27150
G0 F4800 X12.877 Y8.068
G1 F2400 X-10.655 Y-15.463 E395.39111
G0 F4800 X-10.344 Y-15.718
G1 F2400 X13.132 Y7.758 E396.50808
G0 F4800 X13.386 Y7.447
G1 F2400 X-10.034 Y-15.974 E397.62241
G0 F4800 X-9.724 Y-16.229
G1 F2400 X13.642 Y7.136 E398.73412
G0 F4800 X13.897 Y6.826
G1 F2400 X-9.413 Y-16.484 E399.84319
G0 F4800 X-9.060 Y-16.697
G1 F2400 X14.110 Y6.473 E400.94560
G0 F4800 X14.307 Y6.105
G1 F2400 X-8.692 Y-16.894 E402.03987
G0 F4800 X-8.323 Y-17.091
G1 F2400 X14.504 Y5.736 E403.12596
G0 F4800 X14.701 Y5.367
G1 F2400 X-7.954 Y-17.288 E404.20386
G0 F4800 X-7.586 Y-17.486
G1 F2400 X14.898 Y4.999 E405.27366
G0 F4800 X15.095 Y4.630
G1 F2400 X-7.217 Y-17.682 E406.33524
G0 F4800 X-6.849 Y-17.879
G1 F2400 X15.292 Y4.261 E407.38867
G0 F4800 X15.489 Y3.892
G1 F2400 X-6.479 Y-18.076 E408.43389
G0 F4800 X-6.055 Y-18.217
G1 F2400 X15.630 Y3.468 E409.46564
G0 F4800 X15.762 Y3.034
G1 F2400 X-5.621 Y-18.349 E410.48303
G0 F4800 X-5.188 Y-18.481
G1 F2400 X15.893 Y2.600 E411.48604
G0 F4800 X16.025 Y2.166
G1 F2400 X-4.753 Y-18.613 E412.47467
G0 F4800 X-4.319 Y-18.744
G1 F2400 X16.157 Y1.732 E413.44890
G0 F4800 X16.289 Y1.298
G1 F2400 X-3.886 Y-18.876 E414.40878
G0 F4800 X-3.452 Y-19.008
G1 F2400 X16.421 Y0.864 E415.35430
G0 F4800 X16.503 Y0.381
G1 F2400 X-2.969 Y-19.091 E416.28076
G0 F4800 X-2.453 Y-19.141
G1 F2400 X16.554 Y-0.133 E417.18512
G0 F4800 X16.604 Y-0.648
G1 F2400 X-1.938 Y-19.192 E418.06738
G0 F4800 X-1.423 Y-19.242
G1 F2400 X16.655 Y-1.163 E418.92754
G0 F4800 X16.706 Y-1.678
G1 F2400 X-0.907 Y-19.292 E419.76557
G0 F4800 X-0.392 Y-19.342
G1 F2400 X16.757 Y-2.193 E420.58151
G0 F4800 X16.781 Y-2.735
G1 F2400 X0.149 Y-19.366 E421.37282
G0 F4800 X0.776 Y-19.305
G1 F2400 X16.719 Y-3.362 E422.13138
G0 F4800 X16.658 Y-3.989
G1 F2400 X1.402 Y-19.244 E422.85722
G0 F4800 X2.030 Y-19.183
G1 F2400 X16.596 Y-4.616 E423.55028
G0 F4800 X16.534 Y-5.243
G1 F2400 X2.657 Y-19.121 E424.21056
G0 F4800 X3.285 Y-19.059
G1 F2400 X16.472 Y-5.872 E424.83799
G0 F4800 X16.225 Y-6.684
G1 F2400 X4.097 Y-18.812 E425.41503
G0 F4800 X4.910 Y-18.565
G1 F2400 X15.978 Y-7.497 E425.94163
G0 F4800 X15.731 Y-8.309
G1 F2400 X5.722 Y-18.319 E426.41788
G0 F4800 X6.588 Y-18.019
G1 F2400 X15.431 Y-9.175 E426.83864
G0 F4800 X14.782 Y-10.390
G1 F2400 X7.802 Y-17.370 E427.17075
G0 F4800 X9.017 Y-16.721
G1 F2400 X14.132 Y-11.606 E427.41411
G0 F4800 X12.031 Y-14.272
G1 F2400 X11.686 Y-14.618 E427.43055
G0 F4800 X-16.562 Y-4.966
G1 F2400 X2.378 Y13.974 E428.33170
G0 F4800 X1.863 Y14.025
G1 F2400 X-16.612 Y-4.450 E429.21072
G0 F4800 X-16.662 Y-3.935
G1 F2400 X1.347 Y14.075 E430.06760
G0 F4800 X0.832 Y14.126
G1 F2400 X-16.713 Y-3.420 E430.90240
G0 F4800 X-16.764 Y-2.904
G1 F2400 X0.317 Y14.176 E431.71508
G0 F4800 X-0.240 Y14.184
G1 F2400 X-16.771 Y-2.346 E432.50158
G0 F4800 X-16.710 Y-1.719
G1 F2400 X-0.867 Y14.123 E433.25536
G0 F4800 X-1.494 Y14.061
G1 F2400 X-16.648 Y-1.092 E433.97635
G0 F4800 X-16.586 Y-0.464
G1 F2400 X-2.122 Y14.000 E434.66453
G0 F4800 X-2.749 Y13.938
G1 F2400 X-16.525 Y0.162 E435.31998
G0 F4800 X-16.434 Y0.818
G1 F2400 X-3.406 Y13.847 E435.93987
G0 F4800 X-4.218 Y13.600
G1 F2400 X-16.188 Y1.630 E436.50939
G0 F4800 X-15.941 Y2.443
G1 F2400 X-5.030 Y13.354 E437.02852
G0 F4800 X-5.842 Y13.107
G1 F2400 X-15.694 Y3.255 E437.49727
G0 F4800 X-15.335 Y4.181
G1 F2400 X-6.767 Y12.749 E437.90493
G0 F4800 X-7.981 Y12.100
G1 F2400 X-14.685 Y5.395 E438.22393
G0 F4800 X-14.036 Y6.610
G1 F2400 X-9.195 Y11.451 E438.45426
;LAYER:5
M117 Nb = 6 / 15
G0 F4800 X-9.385 Y11.464 Z1.260
;TYPE:WALL-INNER
G1 F2400 X-11.947 Y9.360 E438.56579
G1 X-14.050 Y6.798 E438.67731
G1 X-15.610 Y3.879 E438.78866
G1 X-16.572 Y0.710 E438.90008
G1 X-16.897 Y-2.587 E439.01154
G1 X-16.572 Y-5.884 E439.12300
G1 X-15.610 Y-9.053 E439.23442
G1 X-14.050 Y-11.972 E439.34577
G1 X-11.947 Y-14.534 E439.45728
G1 X-9.385 Y-16.638 E439.56882
G1 X-6.465 Y-18.198 E439.68020
G1 X-3.296 Y-19.160 E439.79162
G1 X0.001 Y-19.484 E439.90308
G1 X3.296 Y-19.160 E440.01447
G1 X6.465 Y-18.198 E440.12589
G1 X9.385 Y-16.638 E440.23727
G1 X11.947 Y-14.534 E440.34880
G1 X14.050 Y-11.972 E440.46032
G1 X15.610 Y-9.053 E440.57167
G1 X16.572 Y-5.884 E440.68309
G1 X16.897 Y-2.587 E440.79455
G1 X16.572 Y0.710 E440.90601
G1 X15.610 Y3.879 E441.01743
G1 X14.050 Y6.798 E441.12878
G1 X11.947 Y9.360 E441.24029
G1 X9.385 Y11.464 E441.35183
G1 X6.465 Y13.024 E441.46321
G1 X3.225 Y14.007 E441.57712
G1 X3.169 Y15.470 E441.62638
G1 X3.144 Y16.104 E441.64772
G1 X3.076 Y16.728 E441.66884
G1 X2.893 Y17.317 E441.68959
G1 X2.595 Y17.890 E441.71132
G1 X2.204 Y18.410 E441.73321
G1 X2.085 Y18.521 E441.73868
G1 X2.225 Y18.352 E441.74607
G1 X2.569 Y17.760 E441.76910
G1 X2.827 Y17.116 E441.79244
G1 X2.991 Y16.439 E441.81588
G1 X3.045 Y15.782 E441.83806
G1 X3.098 Y14.005 E441.89787
G1 X0.000 Y14.310 E442.00260
G1 X-3.100 Y14.005 E442.10740
G1 X-3.045 Y15.782 E442.16721
G1 X-2.991 Y16.439 E442.18939
G1 X-2.827 Y17.116 E442.21283
G1 X-2.569 Y17.760 E442.23617
G1 X-2.245 Y18.316 E442.25782
G1 X-2.569 Y17.887 E442.27590
G1 X-2.865 Y17.317 E442.29751
G1 X-3.050 Y16.723 E442.31844
G1 X-3.116 Y16.116 E442.33898
G1 X-3.197 Y14.016 E442.40969
G1 X-6.465 Y13.024 E442.52459
G1 X-9.385 Y11.464 E442.63597
G0 F4800 X-9.607 Y11.799
;TYPE:WALL-OUTER
G1 F1800 X-12.232 Y9.645 E442.75021
G1 X-14.385 Y7.020 E442.86443
G1 X-15.982 Y4.034 E442.97836
G1 X-16.966 Y0.790 E443.09241
G1 X-17.299 Y-2.587 E443.20657
G1 X-16.966 Y-5.964 E443.32074
G1 X-15.982 Y-9.208 E443.43479
G1 X-14.385 Y-12.194 E443.54871
G1 X-12.232 Y-14.819 E443.66293
G1 X-9.607 Y-16.973 E443.77717
G1 X-6.620 Y-18.570 E443.89113
G1 X-3.376 Y-19.554 E444.00518
G1 X0.001 Y-19.886 E444.11934
G1 X3.375 Y-19.554 E444.23340
G1 X6.620 Y-18.570 E444.34748
G1 X9.607 Y-16.973 E444.46144
G1 X12.232 Y-14.819 E444.57568
G1 X14.385 Y-12.194 E444.68990
G1 X15.982 Y-9.208 E444.80382
G1 X16.966 Y-5.964 E444.91787
G1 X17.299 Y-2.587 E445.03204
G1 X16.966 Y0.790 E445.14620
G1 X15.982 Y4.034 E445.26025
G1 X14.385 Y7.020 E445.37418
G1 X12.232 Y9.645 E445.48840
G1 X9.607 Y11.799 E445.60264
G1 X6.620 Y13.396 E445.71659
G1 X3.614 Y14.307 E445.82227
G1 X3.544 Y16.127 E445.88355
G1 X3.470 Y16.809 E445.90663
G1 X3.264 Y17.469 E445.92989
G1 X2.935 Y18.104 E445.95395
G1 X2.502 Y18.678 E445.97814
G1 X1.975 Y19.172 E446.00244
G1 X1.487 Y19.490 E446.02204
G1 X1.372 Y19.555 E446.02648
G1 X1.056 Y19.694 E446.03809
G1 X0.719 Y19.799 E446.04997
G1 X0.370 Y19.865 E446.06192
G1 X0.014 Y19.886 E446.07392
G1 X-0.341 Y19.865 E446.08588
G1 X-0.692 Y19.798 E446.09790
G1 X-1.017 Y19.697 E446.10935
G1 X-1.541 Y19.443 E446.12894
G1 X-1.943 Y19.175 E446.14520
G1 X-2.471 Y18.680 E446.16955
G1 X-2.909 Y18.101 E446.19397
G1 X-3.236 Y17.469 E446.21791
G1 X-3.442 Y16.809 E446.24118
G1 X-3.517 Y16.127 E446.26426
G1 X-3.586 Y14.316 E446.32523
G1 X-6.620 Y13.396 E446.43190
G1 X-9.607 Y11.799 E446.54585
G0 F4800 X-9.442 Y11.547
G0 X-2.657 Y14.150
G0 X-2.686 Y14.448
G1 F1800 X-2.646 Y15.759 E446.58998
G1 X-2.595 Y16.375 E446.61077
G1 X-2.445 Y16.994 E446.63220
G1 X-2.208 Y17.584 E446.65359
G1 X-1.895 Y18.123 E446.67456
G1 X-1.512 Y18.585 E446.69475
G1 X-1.289 Y18.790 E446.70494
G1 X-0.820 Y19.094 E446.72375
G1 X-0.553 Y19.202 E446.73344
G1 X-0.281 Y19.268 E446.74285
G1 X0.000 Y19.291 E446.75234
G1 X0.282 Y19.268 E446.76186
G1 X0.554 Y19.202 E446.77127
G1 X0.815 Y19.097 E446.78074
G1 X1.062 Y18.957 E446.79029
G1 X1.293 Y18.786 E446.79996
G1 X1.513 Y18.585 E446.80999
G1 X1.896 Y18.123 E446.83018
G1 X2.208 Y17.584 E446.85113
G1 X2.445 Y16.994 E446.87252
G1 X2.595 Y16.375 E446.89395
G1 X2.646 Y15.759 E446.91474
G1 X2.685 Y14.448 E446.95887
G1 X0.000 Y14.712 E447.04964
G1 X-2.686 Y14.448 E447.14044
G0 F4800 X-2.894 Y13.925
;TYPE:SKIN
G1 F2400 X16.510 Y-5.480 E448.06369
G0 F4800 X16.440 Y-5.975
G1 F2400 X-3.389 Y13.854 E449.00714
G0 F4800 X-3.822 Y13.722
G1 F2400 X16.308 Y-6.409 E449.96493
G0 F4800 X16.176 Y-6.842
G1 F2400 X-4.256 Y13.590 E450.93706
G0 F4800 X-4.690 Y13.458
G1 F2400 X16.044 Y-7.276 E451.92357
G0 F4800 X15.912 Y-7.710
G1 F2400 X-5.124 Y13.326 E452.92445
G0 F4800 X-5.558 Y13.195
G1 F2400 X15.781 Y-8.144 E453.93974
G0 F4800 X15.649 Y-8.578
G1 F2400 X-5.992 Y13.063 E454.96940
G0 F4800 X-6.426 Y12.931
G1 F2400 X15.517 Y-9.012 E456.01343
G0 F4800 X15.320 Y-9.381
G1 F2400 X-6.795 Y12.734 E457.06564
G0 F4800 X-7.163 Y12.537
G1 F2400 X15.124 Y-9.750 E458.12604
G0 F4800 X14.927 Y-10.118
G1 F2400 X-7.532 Y12.341 E459.19462
G0 F4800 X-7.901 Y12.143
G1 F2400 X14.729 Y-10.487 E460.27133
G0 F4800 X14.533 Y-10.856
G1 F2400 X-8.270 Y11.947 E461.35628
G0 F4800 X-8.638 Y11.749
G1 F2400 X14.335 Y-11.224 E462.44931
G0 F4800 X14.138 Y-11.593
G1 F2400 X-9.007 Y11.552 E463.55053
G0 F4800 X-9.368 Y11.348
G1 F2400 X13.934 Y-11.954 E464.65922
G0 F4800 X13.678 Y-12.264
G1 F2400 X-9.678 Y11.093 E465.77050
G0 F4800 X-9.989 Y10.837
G1 F2400 X13.423 Y-12.575 E466.88443
G0 F4800 X13.169 Y-12.886
G1 F2400 X-10.299 Y10.582 E468.00101
G0 F4800 X-10.610 Y10.328
G1 F2400 X12.913 Y-13.196 E469.12024
G0 F4800 X12.659 Y-13.507
G1 F2400 X-10.921 Y10.072 E470.24214
G0 F4800 X-11.231 Y9.817
G1 F2400 X12.404 Y-13.818 E471.36667
G0 F4800 X12.148 Y-14.128
G1 F2400 X-11.542 Y9.562 E472.49382
G0 F4800 X-11.853 Y9.307
G1 F2400 X11.894 Y-14.439 E473.62366
G0 F4800 X11.588 Y-14.699
G1 F2400 X-12.111 Y9.000 E474.75123
G0 F4800 X-12.366 Y8.689
G1 F2400 X11.277 Y-14.954 E475.87615
G0 F4800 X10.967 Y-15.209
G1 F2400 X-12.621 Y8.378 E476.99842
G0 F4800 X-12.876 Y8.068
G1 F2400 X10.656 Y-15.464 E478.11805
G0 F4800 X10.345 Y-15.719
G1 F2400 X-13.131 Y7.757 E479.23502
G0 F4800 X-13.386 Y7.446
G1 F2400 X10.035 Y-15.974 E480.34935
G0 F4800 X9.724 Y-16.230
G1 F2400 X-13.641 Y7.136 E481.46106
G0 F4800 X-13.896 Y6.825
G1 F2400 X9.414 Y-16.485 E482.57013
G0 F4800 X9.061 Y-16.698
G1 F2400 X-14.109 Y6.472 E483.67254
G0 F4800 X-14.306 Y6.104
G1 F2400 X8.693 Y-16.895 E484.76681
G0 F4800 X8.324 Y-17.092
G1 F2400 X-14.503 Y5.735 E485.85290
G0 F4800 X-14.700 Y5.366
G1 F2400 X7.955 Y-17.289 E486.93080
G0 F4800 X7.586 Y-17.486
G1 F2400 X-14.898 Y4.998 E488.00057
G0 F4800 X-15.094 Y4.629
G1 F2400 X7.218 Y-17.683 E489.06216
G0 F4800 X6.849 Y-17.880
G1 F2400 X-15.291 Y4.261 E490.11559
G0 F4800 X-15.488 Y3.891
G1 F2400 X6.480 Y-18.077 E491.16080
G0 F4800 X6.056 Y-18.218
G1 F2400 X-15.629 Y3.467 E492.19256
G0 F4800 X-15.761 Y3.033
G1 F2400 X5.622 Y-18.350 E493.20994
G0 F4800 X5.188 Y-18.482
G1 F2400 X-15.892 Y2.599 E494.21294
G0 F4800 X-16.025 Y2.165
G1 F2400 X4.754 Y-18.613 E495.20156
G0 F4800 X4.320 Y-18.745
G1 F2400 X-16.156 Y1.731 E496.17579
G0 F4800 X-16.288 Y1.298
G1 F2400 X3.886 Y-18.877 E497.13567
G0 F4800 X3.452 Y-19.009
G1 F2400 X-16.420 Y0.864 E498.08119
G0 F4800 X-16.503 Y0.381
G1 F2400 X2.969 Y-19.091 E499.00765
G0 F4800 X2.455 Y-19.142
G1 F2400 X-16.553 Y-0.134 E499.91204
G0 F4800 X-16.604 Y-0.649
G1 F2400 X1.939 Y-19.192 E500.79430
G0 F4800 X1.424 Y-19.243
G1 F2400 X-16.655 Y-1.163 E501.65450
G0 F4800 X-16.705 Y-1.679
G1 F2400 X0.909 Y-19.294 E502.49259
G0 F4800 X0.393 Y-19.344
G1 F2400 X-16.756 Y-2.194 E503.30854
G0 F4800 X-16.780 Y-2.735
G1 F2400 X-0.147 Y-19.368 E504.09993
G0 F4800 X-0.774 Y-19.306
G1 F2400 X-16.718 Y-3.362 E504.85853
G0 F4800 X-16.657 Y-3.990
G1 F2400 X-1.402 Y-19.245 E505.58435
G0 F4800 X-2.029 Y-19.183
G1 F2400 X-16.595 Y-4.617 E506.27739
G0 F4800 X-16.534 Y-5.244
G1 F2400 X-2.655 Y-19.122 E506.93771
G0 F4800 X-3.284 Y-19.060
G1 F2400 X-16.471 Y-5.873 E507.56514
G0 F4800 X-16.224 Y-6.685
G1 F2400 X-4.096 Y-18.813 E508.14218
G0 F4800 X-4.909 Y-18.566
G1 F2400 X-15.977 Y-7.498 E508.66879
G0 F4800 X-15.731 Y-8.310
G1 F2400 X-5.721 Y-18.319 E509.14503
G0 F4800 X-6.587 Y-18.019
G1 F2400 X-15.431 Y-9.176 E509.56580
G0 F4800 X-14.781 Y-10.391
G1 F2400 X-7.801 Y-17.371 E509.89790
G0 F4800 X-9.016 Y-16.722
G1 F2400 X-14.131 Y-11.607 E510.14127
G0 F4800 X-12.030 Y-14.273
G1 F2400 X-11.685 Y-14.618 E510.15768
G0 F4800 X16.561 Y-4.965
G1 F2400 X-2.379 Y13.975 E511.05883
G0 F4800 X-1.863 Y14.026
G1 F2400 X16.612 Y-4.449 E511.93785
G0 F4800 X16.662 Y-3.934
G1 F2400 X-1.349 Y14.077 E512.79480
G0 F4800 X-0.833 Y14.127
G1 F2400 X16.713 Y-3.419 E513.62963
G0 F4800 X16.763 Y-2.904
G1 F2400 X-0.318 Y14.177 E514.44233
G0 F4800 X0.239 Y14.185
G1 F2400 X16.771 Y-2.346 E515.22888
G0 F4800 X16.709 Y-1.718
G1 F2400 X0.866 Y14.123 E515.98263
G0 F4800 X1.494 Y14.062
G1 F2400 X16.648 Y-1.091 E516.70362
G0 F4800 X16.585 Y-0.463
G1 F2400 X2.121 Y14.000 E517.39178
G0 F4800 X2.748 Y13.939
G1 F2400 X16.524 Y0.163 E518.04723
G0 F4800 X16.433 Y0.819
G1 F2400 X3.405 Y13.847 E518.66709
G0 F4800 X4.217 Y13.601
G1 F2400 X16.187 Y1.631 E519.23661
G0 F4800 X15.941 Y2.443
G1 F2400 X5.029 Y13.355 E519.75580
G0 F4800 X5.842 Y13.108
G1 F2400 X15.694 Y3.256 E520.22455
G0 F4800 X15.334 Y4.181
G1 F2400 X6.766 Y12.749 E520.63221
G0 F4800 X7.981 Y12.100
G1 F2400 X14.685 Y5.396 E520.95118
G0 F4800 X14.036 Y6.611
G1 F2400 X9.195 Y11.452 E521.18151
;LAYER:6
M117 Nb = 7 / 15
G0 F4800 X9.385 Y11.464 Z1.460
;TYPE:WALL-INNER
G1 F2400 X6.465 Y13.024 E521.29289
G1 X3.225 Y14.007 E521.40680
G1 X3.144 Y16.104 E521.47740
G1 X3.076 Y16.728 E521.49852
G1 X2.893 Y17.317 E521.51927
G1 X2.595 Y17.890 E521.54100
G1 X2.204 Y18.410 E521.56289
G1 X2.087 Y18.520 E521.56829
G1 X2.225 Y18.352 E521.57560
G1 X2.569 Y17.760 E521.59864
G1 X2.827 Y17.116 E521.62198
G1 X2.991 Y16.439 E521.64542
G1 X3.045 Y15.782 E521.66759
G1 X3.098 Y14.005 E521.72740
G1 X-0.001 Y14.310 E521.83217
G1 X-3.100 Y14.005 E521.93693
G1 X-3.045 Y15.782 E521.99675
G1 X-2.991 Y16.439 E522.01893
G1 X-2.827 Y17.116 E522.04236
G1 X-2.569 Y17.760 E522.06570
G1 X-2.245 Y18.316 E522.08735
G1 X-2.569 Y17.887 E522.10544
G1 X-2.865 Y17.317 E522.12705
G1 X-3.050 Y16.723 E522.14798
G1 X-3.116 Y16.116 E522.16852
G1 X-3.150 Y15.206 E522.19916
G1 X-3.197 Y14.016 E522.23922
G1 X-6.465 Y13.024 E522.35413
G1 X-9.385 Y11.464 E522.46551
G1 X-11.947 Y9.360 E522.57704
G1 X-14.050 Y6.798 E522.68856
G1 X-15.610 Y3.879 E522.79991
G1 X-16.572 Y0.710 E522.91133
G1 X-16.897 Y-2.587 E523.02279
G1 X-16.572 Y-5.884 E523.13425
G1 X-15.610 Y-9.053 E523.24567
G1 X-14.050 Y-11.972 E523.35702
G1 X-11.947 Y-14.534 E523.46853
G1 X-9.385 Y-16.638 E523.58007
G1 X-6.465 Y-18.198 E523.69145
G1 X-3.296 Y-19.160 E523.80287
G1 X0.000 Y-19.484 E523.91429
G1 X3.296 Y-19.160 E524.02572
G1 X6.465 Y-18.198 E524.13714
G1 X9.385 Y-16.638 E524.24852
G1 X11.947 Y-14.534 E524.36005
G1 X14.050 Y-11.972 E524.47157
G1 X15.610 Y-9.053 E524.58292
G1 X16.572 Y-5.884 E524.69434
G1 X16.897 Y-2.587 E524.80580
G1 X16.572 Y0.710 E524.91726
G1 X15.610 Y3.879 E525.02868
G1 X14.050 Y6.798 E525.14003
G1 X11.947 Y9.360 E525.25154
G1 X9.385 Y11.464 E525.36308
G0 F4800 X9.607 Y11.799
;TYPE:WALL-OUTER
G1 F1800 X6.620 Y13.396 E525.47703
G1 X3.614 Y14.307 E525.58271
G1 X3.544 Y16.127 E525.64398
G1 X3.470 Y16.809 E525.66706
G1 X3.264 Y17.469 E525.69032
G1 X2.935 Y18.104 E525.71439
G1 X2.502 Y18.678 E525.73858
G1 X1.974 Y19.173 E525.76292
G1 X1.515 Y19.474 E525.78139
G1 X1.372 Y19.555 E525.78692
G1 X1.056 Y19.694 E525.79853
G1 X0.719 Y19.799 E525.81041
G1 X0.370 Y19.865 E525.82236
G1 X0.014 Y19.886 E525.83436
G1 X-0.341 Y19.865 E525.84632
G1 X-0.692 Y19.798 E525.85834
G1 X-1.020 Y19.697 E525.86989
G1 X-1.518 Y19.456 E525.88850
G1 X-1.939 Y19.178 E525.90548
G1 X-2.471 Y18.680 E525.92999
G1 X-2.909 Y18.101 E525.95442
G1 X-3.236 Y17.469 E525.97836
G1 X-3.442 Y16.809 E526.00162
G1 X-3.517 Y16.127 E526.02470
G1 X-3.585 Y14.316 E526.08568
G1 X-6.620 Y13.396 E526.19237
G1 X-9.607 Y11.799 E526.30633
G1 X-12.232 Y9.645 E526.42057
G1 X-14.385 Y7.020 E526.53479
G1 X-15.982 Y4.034 E526.64871
G1 X-16.966 Y0.790 E526.76276
G1 X-17.299 Y-2.587 E526.87693
G1 X-16.966 Y-5.964 E526.99109
G1 X-15.982 Y-9.208 E527.10514
G1 X-14.385 Y-12.194 E527.21907
G1 X-12.232 Y-14.819 E527.33329
G1 X-9.607 Y-16.973 E527.44753
G1 X-6.620 Y-18.570 E527.56148
G1 X-3.376 Y-19.554 E527.67553
G1 X0.000 Y-19.886 E527.78966
G1 X3.376 Y-19.554 E527.90379
G1 X6.620 Y-18.570 E528.01784
G1 X9.607 Y-16.973 E528.13180
G1 X12.232 Y-14.819 E528.24604
G1 X14.385 Y-12.194 E528.36026
G1 X15.982 Y-9.208 E528.47418
G1 X16.966 Y-5.964 E528.58823
G1 X17.299 Y-2.587 E528.70240
G1 X16.966 Y0.790 E528.81656
G1 X15.982 Y4.034 E528.93061
G1 X14.385 Y7.020 E529.04454
G1 X12.232 Y9.645 E529.15876
G1 X9.607 Y11.799 E529.27300
G0 F4800 X9.445 Y11.544
G0 X3.261 Y14.035
G0 X2.984 Y14.455
G0 X2.685 Y14.448
G1 F1800 X-0.001 Y14.712 E529.36380
G1 X-2.686 Y14.448 E529.45457
G1 X-2.646 Y15.759 E529.49870
G1 X-2.595 Y16.375 E529.51949
G1 X-2.445 Y16.994 E529.54092
G1 X-2.208 Y17.584 E529.56231
G1 X-1.895 Y18.123 E529.58328
G1 X-1.512 Y18.585 E529.60347
G1 X-1.293 Y18.786 E529.61347
G1 X-1.061 Y18.957 E529.62317
G1 X-0.814 Y19.097 E529.63272
G1 X-0.553 Y19.202 E529.64218
G1 X-0.281 Y19.268 E529.65160
G1 X0.000 Y19.291 E529.66109
G1 X0.282 Y19.268 E529.67060
G1 X0.554 Y19.202 E529.68002
G1 X0.815 Y19.097 E529.68949
G1 X1.067 Y18.955 E529.69922
G1 X1.510 Y18.589 E529.71855
G1 X1.896 Y18.123 E529.73891
G1 X2.208 Y17.584 E529.75986
G1 X2.445 Y16.994 E529.78125
G1 X2.595 Y16.375 E529.80268
G1 X2.646 Y15.759 E529.82348
G1 X2.685 Y14.448 E529.86760
G0 F4800 X2.686 Y13.944
;TYPE:FILL
G1 F2400 X3.261 Y13.608 E529.88049
G1 X3.760 Y13.739 E529.89784
G0 F4800 X8.319 Y11.645
G1 F2400 X8.498 Y11.824 E529.90636
G0 F4800 X12.037 Y8.710
G1 F2400 X12.208 Y8.882 E529.91452
G0 F4800 X14.926 Y4.947
G1 F2400 X14.746 Y4.767 E529.92308
G0 F4800 X16.260 Y0.370
G1 F2400 X16.539 Y0.009 E529.93590
G1 X16.326 Y-0.304 E529.94864
G0 F4800 X16.131 Y-6.152
G1 F2400 X16.327 Y-6.348 E529.95796
G0 F4800 X16.062 Y-7.220
G1 F2400 X15.695 Y-7.587 E529.97542
G0 F4800 X14.231 Y-10.905
G1 F2400 X14.410 Y-11.084 E529.98394
G0 F4800 X11.297 Y-14.623
G1 F2400 X11.469 Y-14.796 E529.99215
G0 F4800 X7.534 Y-17.513
G1 F2400 X7.354 Y-17.333 E530.00071
G0 F4800 X4.999 Y-18.283
G1 F2400 X4.633 Y-18.649 E530.01813
G0 F4800 X2.505 Y-19.137
G1 F2400 X2.282 Y-18.913 E530.02876
G0 F4800 X-2.283 Y-18.914
G1 F2400 X-2.505 Y-19.136 E530.03932
G0 F4800 X-4.632 Y-18.650
G1 F2400 X-5.000 Y-18.282 E530.05683
G0 F4800 X-7.355 Y-17.334
G1 F2400 X-7.534 Y-17.512 E530.06533
G0 F4800 X-11.298 Y-14.624
G1 F2400 X-11.469 Y-14.795 E530.07346
G0 F4800 X-14.411 Y-11.085
G1 F2400 X-14.231 Y-10.905 E530.08203
G0 F4800 X-15.696 Y-7.587
G1 F2400 X-16.061 Y-7.221 E530.09942
G0 F4800 X-16.327 Y-6.349
G1 F2400 X-16.130 Y-6.151 E530.10881
G0 F4800 X-16.327 Y-0.304
G1 F2400 X-16.539 Y0.008 E530.11935
G1 X-16.259 Y0.371 E530.13477
G0 F4800 X-14.746 Y4.768
G1 F2400 X-14.925 Y4.946 E530.14326
G0 F4800 X-12.037 Y8.711
G1 F2400 X-12.208 Y8.881 E530.15138
G0 F4800 X-8.498 Y11.824
G1 F2400 X-8.318 Y11.644 E530.15994
G0 F4800 X-3.761 Y13.739
G1 F2400 X-3.261 Y13.608 E530.16924
G1 X-2.687 Y13.944 E530.19162
G0 F4800 X-0.566 Y9.412
G1 F2400 X-3.638 Y6.339 E530.33781
G0 F4800 X-3.438 Y6.764
G1 F2400 X-0.605 Y3.932 E530.47257
G0 F4800 X0.622 Y3.948
G1 F2400 X3.458 Y6.784 E530.60751
G0 F4800 X3.705 Y6.272
G1 F2400 X0.566 Y9.412 E530.75688
G0 F4800 X1.759 Y1.566
G1 F2400 X9.954 Y-6.628 E531.14677
G0 F4800 X9.970 Y-6.660
G1 F2400 X5.870 Y-10.760 E531.34185
G0 F4800 X7.435 Y-10.761
G1 F2400 X4.111 Y-7.438 E531.49997
G0 F4800 X2.540 Y-7.438
G1 F2400 X-0.781 Y-10.760 E531.65801
G0 F4800 X0.782 Y-10.760
G1 F2400 X-2.540 Y-7.438 E531.81607
G0 F4800 X-4.833 Y-5.144
G1 F2400 X-5.091 Y-4.887 E531.82832
G0 F4800 X-6.303 Y-2.977
G1 F2400 X-1.648 Y1.677 E532.04978
G0 F4800 X-2.710 Y-0.615
G1 F2400 X-5.564 Y2.238 E532.18554
G0 F4800 X-7.708 Y-4.381
G1 F2400 X-9.088 Y-5.762 E532.25123
G0 F4800 X-8.406 Y-8.225
G1 F2400 X-6.931 Y-9.700 E532.32140
G0 F4800 X4.920 Y-5.057
G1 F2400 X7.800 Y-2.178 E532.45841
G0 F4800 X5.629 Y2.303
G1 F2400 X2.771 Y-0.554 E532.59437
G0 F4800 X3.335 Y-0.341
;TYPE:SKIN
G1 F2400 X-11.276 Y-14.953 E533.28957
G0 F4800 X-10.966 Y-15.209
G1 F2400 X3.517 Y-0.724 E533.97871
G0 F4800 X3.700 Y-1.107
G1 F2400 X-10.655 Y-15.463 E534.66173
G0 F4800 X-10.344 Y-15.718
G1 F2400 X-3.510 Y-8.884 E534.98688
G0 F4800 X-4.002 Y-9.942
G1 F2400 X-10.034 Y-15.974 E535.27388
G0 F4800 X-9.724 Y-16.229
G1 F2400 X-3.655 Y-10.160 E535.56264
G0 F4800 X-3.089 Y-10.160
G1 F2400 X-9.413 Y-16.484 E535.86353
G0 F4800 X-9.060 Y-16.697
G1 F2400 X-2.523 Y-10.160 E536.17455
G0 F4800 X-1.957 Y-10.160
G1 F2400 X-8.692 Y-16.894 E536.49498
G0 F4800 X-8.323 Y-17.091
G1 F2400 X-1.392 Y-10.160 E536.82475
G0 F4800 X-0.826 Y-10.160
G1 F2400 X-7.954 Y-17.288 E537.16389
G0 F4800 X-7.586 Y-17.486
G1 F2400 X-0.260 Y-10.160 E537.51246
G0 F4800 X0.304 Y-10.160
G1 F2400 X-7.217 Y-17.682 E537.87032
G0 F4800 X-6.849 Y-17.879
G1 F2400 X0.870 Y-10.160 E538.23759
G0 F4800 X1.436 Y-10.160
G1 F2400 X-6.479 Y-18.076 E538.61420
G0 F4800 X-6.055 Y-18.217
G1 F2400 X2.001 Y-10.160 E538.99752
G0 F4800 X2.567 Y-10.160
G1 F2400 X-5.621 Y-18.349 E539.38712
G0 F4800 X-5.188 Y-18.481
G1 F2400 X3.133 Y-10.160 E539.78303
G0 F4800 X3.698 Y-10.161
G1 F2400 X-4.753 Y-18.613 E540.18514
G0 F4800 X-4.319 Y-18.744
G1 F2400 X4.263 Y-10.161 E540.59349
G0 F4800 X4.829 Y-10.161
G1 F2400 X-3.886 Y-18.876 E541.00814
G0 F4800 X-3.452 Y-19.008
G1 F2400 X5.395 Y-10.161 E541.42908
G0 F4800 X5.960 Y-10.161
G1 F2400 X-2.969 Y-19.091 E541.85393
G0 F4800 X-2.453 Y-19.141
G1 F2400 X6.526 Y-10.161 E542.28117
G0 F4800 X7.092 Y-10.161
G1 F2400 X-1.938 Y-19.192 E542.71083
G0 F4800 X-1.423 Y-19.242
G1 F2400 X7.657 Y-10.161 E543.14288
G0 F4800 X8.223 Y-10.161
G1 F2400 X-0.907 Y-19.292 E543.57730
G0 F4800 X-0.392 Y-19.342
G1 F2400 X8.789 Y-10.161 E544.01412
G0 F4800 X9.355 Y-10.161
G1 F2400 X0.149 Y-19.366 E544.45211
G0 F4800 X0.776 Y-19.305
G1 F2400 X9.920 Y-10.161 E544.88717
G0 F4800 X10.486 Y-10.161
G1 F2400 X1.402 Y-19.244 E545.31936
G0 F4800 X2.030 Y-19.183
G1 F2400 X16.596 Y-4.616 E546.01242
G0 F4800 X16.658 Y-3.989
G1 F2400 X10.830 Y-9.817 E546.28971
G0 F4800 X10.645 Y-9.436
G1 F2400 X16.719 Y-3.362 E546.57871
G0 F4800 X16.781 Y-2.735
G1 F2400 X10.460 Y-9.055 E546.87943
G0 F4800 X10.276 Y-8.674
G1 F2400 X16.757 Y-2.193 E547.18779
G0 F4800 X16.706 Y-1.678
G1 F2400 X10.091 Y-8.292 E547.50251
G0 F4800 X9.907 Y-7.911
G1 F2400 X16.655 Y-1.163 E547.82357
G0 F4800 X16.604 Y-0.648
G1 F2400 X9.722 Y-7.530 E548.15101
G0 F4800 X9.538 Y-7.149
G1 F2400 X16.554 Y-0.133 E548.48482
G0 F4800 X16.503 Y0.381
G1 F2400 X9.353 Y-6.768 E548.82499
G0 F4800 X9.169 Y-6.387
G1 F2400 X16.421 Y0.864 E549.17001
G0 F4800 X16.289 Y1.298
G1 F2400 X8.984 Y-6.006 E549.51755
G0 F4800 X8.799 Y-5.625
G1 F2400 X16.157 Y1.732 E549.86762
G0 F4800 X16.025 Y2.166
G1 F2400 X8.615 Y-5.243 E550.22015
G0 F4800 X8.430 Y-4.862
G1 F2400 X15.893 Y2.600 E550.57521
G0 F4800 X15.762 Y3.034
G1 F2400 X8.246 Y-4.481 E550.93279
G0 F4800 X8.061 Y-4.100
G1 F2400 X15.630 Y3.468 E551.29290
G0 F4800 X15.489 Y3.892
G1 F2400 X7.877 Y-3.719 E551.65505
G0 F4800 X7.692 Y-3.338
G1 F2400 X15.292 Y4.261 E552.01662
G0 F4800 X15.095 Y4.630
G1 F2400 X7.508 Y-2.957 E552.37761
G0 F4800 X7.323 Y-2.575
G1 F2400 X14.898 Y4.999 E552.73800
G0 F4800 X14.701 Y5.367
G1 F2400 X7.138 Y-2.194 E553.09779
G0 F4800 X6.954 Y-1.813
G1 F2400 X14.504 Y5.736 E553.45699
G0 F4800 X14.307 Y6.105
G1 F2400 X6.769 Y-1.432 E553.81562
G0 F4800 X6.585 Y-1.051
G1 F2400 X14.110 Y6.473 E554.17362
G0 F4800 X13.897 Y6.826
G1 F2400 X6.400 Y-0.670 E554.53030
G0 F4800 X6.216 Y-0.289
G1 F2400 X13.642 Y7.136 E554.88360
G0 F4800 X13.386 Y7.447
G1 F2400 X6.031 Y0.091 E555.23357
G0 F4800 X5.847 Y0.473
G1 F2400 X13.132 Y7.758 E555.58018
G0 F4800 X12.877 Y8.068
G1 F2400 X5.662 Y0.854 E555.92344
G0 F4800 X5.477 Y1.234
G1 F2400 X12.621 Y8.379 E556.26337
G0 F4800 X12.367 Y8.690
G1 F2400 X5.292 Y1.615 E556.59999
G0 F4800 X5.108 Y1.996
G1 F2400 X12.112 Y9.000 E556.93324
G0 F4800 X11.852 Y9.306
G1 F2400 X4.923 Y2.378 E557.26289
G0 F4800 X4.739 Y2.759
G1 F2400 X11.541 Y9.561 E557.58652
G0 F4800 X11.230 Y9.816
G1 F2400 X4.554 Y3.140 E557.90416
G0 F4800 X4.369 Y3.521
G1 F2400 X10.920 Y10.072 E558.21585
G0 F4800 X10.610 Y10.327
G1 F2400 X4.185 Y3.902 E558.52155
G0 F4800 X4.000 Y4.283
G1 F2400 X10.299 Y10.581 E558.82123
G0 F4800 X9.988 Y10.837
G1 F2400 X3.816 Y4.664 E559.11491
G0 F4800 X3.631 Y5.045
G1 F2400 X9.678 Y11.092 E559.40262
G0 F4800 X9.367 Y11.347
G1 F2400 X3.447 Y5.427 E559.68429
G0 F4800 X3.262 Y5.808
G1 F2400 X9.006 Y11.552 E559.95758
G0 F4800 X8.638 Y11.749
G1 F2400 X3.078 Y6.189 E560.22212
G0 F4800 X2.893 Y6.570
G1 F2400 X8.269 Y11.946 E560.47791
G0 F4800 X7.900 Y12.143
G1 F2400 X2.708 Y6.951 E560.72494
G0 F4800 X2.524 Y7.332
G1 F2400 X7.532 Y12.340 E560.96322
G0 F4800 X7.162 Y12.537
G1 F2400 X2.339 Y7.713 E561.19271
G0 F4800 X2.155 Y8.094
G1 F2400 X6.794 Y12.734 E561.41346
G0 F4800 X6.425 Y12.930
G1 F2400 X1.970 Y8.476 E561.62540
G0 F4800 X1.740 Y8.811
G1 F2400 X5.991 Y13.062 E561.82766
G0 F4800 X5.557 Y13.193
G1 F2400 X1.175 Y8.811 E562.03615
G0 F4800 X0.609 Y8.811
G1 F2400 X5.123 Y13.326 E562.25095
G0 F4800 X4.689 Y13.457
G1 F2400 X0.043 Y8.811 E562.47200
G0 F4800 X-0.521 Y8.811
G1 F2400 X4.255 Y13.589 E562.69928
G0 F4800 X3.821 Y13.720
G1 F2400 X-1.087 Y8.811 E562.93283
G0 F4800 X-1.653 Y8.811
G1 F2400 X3.387 Y13.852 E563.17265
G0 F4800 X2.893 Y13.924
G1 F2400 X-16.511 Y-5.480 E564.09587
G0 F4800 X-16.440 Y-5.975
G1 F2400 X-1.954 Y8.510 E564.78508
G0 F4800 X-2.455 Y7.443
G1 F2400 X-16.309 Y-6.409 E565.44420
G0 F4800 X-16.177 Y-6.843
G1 F2400 X-2.956 Y6.377 E566.07322
G0 F4800 X-3.457 Y5.310
G1 F2400 X-16.045 Y-7.277 E566.67212
G0 F4800 X-15.913 Y-7.710
G1 F2400 X-3.959 Y4.243 E567.24086
G0 F4800 X-4.460 Y3.176
G1 F2400 X-15.781 Y-8.145 E567.77950
G0 F4800 X-15.650 Y-8.579
G1 F2400 X-4.961 Y2.110 E568.28807
G0 F4800 X-5.462 Y1.042
G1 F2400 X-15.518 Y-9.012 E568.76648
G0 F4800 X-15.321 Y-9.381
G1 F2400 X-5.963 Y-0.024 E569.21170
G0 F4800 X-6.465 Y-1.091
G1 F2400 X-15.125 Y-9.751 E569.62374
G0 F4800 X-14.927 Y-10.119
G1 F2400 X-6.445 Y-1.636 E570.02733
G0 F4800 X-6.225 Y-1.982
G1 F2400 X-14.730 Y-10.487 E570.43199
G0 F4800 X-14.533 Y-10.856
G1 F2400 X-6.005 Y-2.328 E570.83774
G0 F4800 X-5.785 Y-2.674
G1 F2400 X-8.061 Y-4.950 E570.94603
G0 F4800 X-8.193 Y-5.081
G1 F2400 X-14.336 Y-11.225 E571.23834
G0 F4800 X-14.139 Y-11.593
G1 F2400 X-8.336 Y-5.790 E571.51444
G0 F4800 X-8.103 Y-6.123
G1 F2400 X-13.934 Y-11.955 E571.79190
G0 F4800 X-13.679 Y-12.265
G1 F2400 X-7.870 Y-6.456 E572.06828
G0 F4800 X-7.638 Y-6.789
G1 F2400 X-13.424 Y-12.575 E572.34358
G0 F4800 X-13.169 Y-12.887
G1 F2400 X-7.405 Y-7.122 E572.61785
G0 F4800 X-6.966 Y-6.683
G1 F2400 X2.055 Y2.338 E573.04706
G0 F4800 X1.873 Y2.721
G1 F2400 X-7.185 Y-6.337 E573.47803
G0 F4800 X-7.404 Y-5.989
G1 F2400 X-5.125 Y-3.711 E573.58644
G0 F4800 X-5.345 Y-3.365
G1 F2400 X-7.623 Y-5.643 E573.69482
G0 F4800 X-7.842 Y-5.296
G1 F2400 X-5.565 Y-3.020 E573.80314
G0 F4800 X-4.525 Y-3.111
G1 F2400 X1.689 Y3.104 E574.09882
G0 F4800 X1.507 Y3.487
G1 F2400 X-4.038 Y-2.059 E574.36267
G0 F4800 X-3.551 Y-1.006
G1 F2400 X1.324 Y3.869 E574.59462
G0 F4800 X1.141 Y4.253
G1 F2400 X-3.065 Y0.045 E574.79478
G0 F4800 X-2.578 Y1.098
G1 F2400 X0.958 Y4.635 E574.96305
G0 F4800 X0.776 Y5.019
G1 F2400 X-2.091 Y2.151 E575.09948
G0 F4800 X-1.604 Y3.203
G1 F2400 X0.593 Y5.401 E575.20403
G0 F4800 X0.338 Y5.712
G1 F2400 X-1.117 Y4.256 E575.27328
G0 F4800 X-0.630 Y5.308
G1 F2400 X-0.229 Y5.709 E575.29236
G0 F4800 X2.238 Y1.955
G1 F2400 X-6.747 Y-7.030 E575.71986
G0 F4800 X-6.528 Y-7.376
G1 F2400 X2.421 Y1.572 E576.14562
G0 F4800 X2.604 Y1.190
G1 F2400 X-6.993 Y-8.407 E576.60224
G0 F4800 X-7.578 Y-7.860
G1 F2400 X-12.914 Y-13.197 E576.85615
G0 F4800 X-12.660 Y-13.508
G1 F2400 X-8.062 Y-8.910 E577.07492
G0 F4800 X-7.484 Y-9.464
G1 F2400 X2.786 Y0.806 E577.56355
G0 F4800 X2.969 Y0.424
G1 F2400 X-11.894 Y-14.440 E578.27075
G0 F4800 X-11.587 Y-14.698
G1 F2400 X3.152 Y0.041 E578.97202
G0 F4800 X3.883 Y-1.490
G1 F2400 X-2.664 Y-8.038 E579.28354
G0 F4800 X-2.098 Y-8.038
G1 F2400 X4.066 Y-1.873 E579.57684
G0 F4800 X4.249 Y-2.256
G1 F2400 X-1.533 Y-8.038 E579.85194
G0 F4800 X-0.967 Y-8.038
G1 F2400 X4.432 Y-2.638 E580.10885
G0 F4800 X4.614 Y-3.022
G1 F2400 X-0.401 Y-8.038 E580.34748
G0 F4800 X0.164 Y-8.038
G1 F2400 X4.797 Y-3.404 E580.56794
G0 F4800 X4.980 Y-3.787
G1 F2400 X0.729 Y-8.038 E580.77020
G0 F4800 X1.295 Y-8.038
G1 F2400 X5.163 Y-4.170 E580.95423
G0 F4800 X5.345 Y-4.553
G1 F2400 X1.861 Y-8.038 E581.12002
G0 F4800 X2.426 Y-8.038
G1 F2400 X5.528 Y-4.936 E581.26761
G0 F4800 X5.711 Y-5.319
G1 F2400 X2.992 Y-8.038 E581.39698
G0 F4800 X3.558 Y-8.038
G1 F2400 X5.894 Y-5.702 E581.50813
G0 F4800 X6.076 Y-6.085
G1 F2400 X4.123 Y-8.038 E581.60105
G0 F4800 X4.689 Y-8.038
G1 F2400 X6.260 Y-6.467 E581.67580
G0 F4800 X6.442 Y-6.851
G1 F2400 X5.255 Y-8.038 E581.73227
G0 F4800 X5.820 Y-8.038
G1 F2400 X6.625 Y-7.233 E581.77057
G0 F4800 X6.808 Y-7.616
G1 F2400 X6.386 Y-8.038 E581.79065
G0 F4800 X12.031 Y-14.272
G1 F2400 X11.686 Y-14.618 E581.80709
G0 F4800 X9.017 Y-16.721
G1 F2400 X14.132 Y-11.606 E582.05046
G0 F4800 X14.782 Y-10.390
G1 F2400 X7.802 Y-17.370 E582.38256
G0 F4800 X6.588 Y-18.019
G1 F2400 X15.431 Y-9.175 E582.80333
G0 F4800 X15.731 Y-8.309
G1 F2400 X5.722 Y-18.319 E583.27957
G0 F4800 X4.910 Y-18.565
G1 F2400 X15.978 Y-7.497 E583.80618
G0 F4800 X16.225 Y-6.684
G1 F2400 X4.097 Y-18.812 E584.38322
G0 F4800 X3.285 Y-19.059
G1 F2400 X16.472 Y-5.872 E585.01064
G0 F4800 X16.534 Y-5.243
G1 F2400 X2.657 Y-19.121 E585.67092
G0 F4800 X-8.039 Y-10.018
G1 F2400 X-12.149 Y-14.129 E585.86650
G0 F4800 X-12.404 Y-13.818
G1 F2400 X-8.546 Y-9.961 E586.05003
G0 F4800 X-16.562 Y-4.966
G1 F2400 X2.378 Y13.974 E586.95118
G0 F4800 X1.862 Y14.024
G1 F2400 X-16.612 Y-4.450 E587.83016
G0 F4800 X-16.662 Y-3.935
G1 F2400 X1.347 Y14.075 E588.68703
G0 F4800 X0.832 Y14.125
G1 F2400 X-16.713 Y-3.420 E589.52181
G0 F4800 X-16.764 Y-2.904
G1 F2400 X0.316 Y14.176 E590.33446
G0 F4800 X-0.241 Y14.183
G1 F2400 X-16.771 Y-2.346 E591.12092
G0 F4800 X-16.710 Y-1.719
G1 F2400 X-0.868 Y14.122 E591.87465
G0 F4800 X-1.495 Y14.060
G1 F2400 X-16.648 Y-1.092 E592.59559
G0 F4800 X-16.586 Y-0.464
G1 F2400 X-2.122 Y13.999 E593.28375
G0 F4800 X-2.749 Y13.938
G1 F2400 X-16.525 Y0.162 E593.93920
G0 F4800 X-16.434 Y0.818
G1 F2400 X-3.406 Y13.847 E594.55909
G0 F4800 X-4.218 Y13.600
G1 F2400 X-16.188 Y1.630 E595.12861
G0 F4800 X-15.941 Y2.443
G1 F2400 X-5.030 Y13.354 E595.64774
G0 F4800 X-5.842 Y13.107
G1 F2400 X-15.694 Y3.255 E596.11649
G0 F4800 X-15.335 Y4.181
G1 F2400 X-6.767 Y12.749 E596.52415
G0 F4800 X-7.981 Y12.100
G1 F2400 X-14.685 Y5.395 E596.84315
G0 F4800 X-14.036 Y6.610
G1 F2400 X-9.195 Y11.451 E597.07348
;LAYER:7
M117 Nb = 8 / 15
M106 S135
G0 F4800 X-9.270 Y11.589 Z1.660
G0 X-6.525 Y13.168
G0 X-3.191 Y14.153
;TYPE:WALL-INNER
G1 F2280 X-3.094 Y14.163 E597.07676
G1 X-3.045 Y15.782 E597.13125
G1 X-2.991 Y16.439 E597.15343
G1 X-2.827 Y17.116 E597.17687
G1 X-2.569 Y17.760 E597.20021
G1 X-2.245 Y18.316 E597.22186
G1 X-2.569 Y17.887 E597.23994
G1 X-2.865 Y17.317 E597.26155
G1 X-3.050 Y16.723 E597.28248
G1 X-3.116 Y16.115 E597.30306
G1 X-3.191 Y14.153 E597.36911
G0 F4800 X0.000 Y14.311
G0 X3.027 Y14.080
G0 X3.062 Y15.206
G1 F2280 X3.094 Y14.164 E597.40419
G1 X3.219 Y14.151 E597.40842
G1 X3.144 Y16.104 E597.47417
G1 X3.076 Y16.728 E597.49529
G1 X2.893 Y17.317 E597.51604
G1 X2.595 Y17.890 E597.53777
G1 X2.204 Y18.410 E597.55966
G1 X2.085 Y18.521 E597.56513
G1 X2.225 Y18.352 E597.57251
G1 X2.569 Y17.760 E597.59555
G1 X2.827 Y17.116 E597.61889
G1 X2.991 Y16.439 E597.64233
G1 X3.045 Y15.781 E597.66454
G1 X3.062 Y15.206 E597.68389
G0 F4800 X2.684 Y14.448
;TYPE:WALL-OUTER
G1 F1740 X-0.001 Y14.712 E597.77466
G1 X-2.686 Y14.448 E597.86543
G1 X-2.646 Y15.759 E597.90955
G1 X-2.595 Y16.375 E597.93035
G1 X-2.445 Y16.994 E597.95178
G1 X-2.208 Y17.584 E597.97317
G1 X-1.895 Y18.123 E597.99414
G1 X-1.512 Y18.585 E598.01433
G1 X-1.293 Y18.786 E598.02433
G1 X-1.061 Y18.957 E598.03403
G1 X-0.814 Y19.097 E598.04358
G1 X-0.553 Y19.202 E598.05304
G1 X-0.281 Y19.268 E598.06246
G1 X0.000 Y19.291 E598.07194
G1 X0.282 Y19.268 E598.08146
G1 X0.554 Y19.202 E598.09088
G1 X0.815 Y19.097 E598.10035
G1 X1.062 Y18.957 E598.10990
G1 X1.293 Y18.786 E598.11957
G1 X1.513 Y18.585 E598.12959
G1 X1.896 Y18.123 E598.14978
G1 X2.208 Y17.584 E598.17073
G1 X2.445 Y16.994 E598.19213
G1 X2.595 Y16.375 E598.21355
G1 X2.646 Y15.759 E598.23435
G1 X2.684 Y14.448 E598.27847
G0 F4800 X3.614 Y14.307
G1 F1740 X3.544 Y16.127 E598.33975
G1 X3.470 Y16.809 E598.36283
G1 X3.264 Y17.469 E598.38609
G1 X2.935 Y18.104 E598.41015
G1 X2.502 Y18.678 E598.43434
G1 X1.968 Y19.178 E598.45895
G1 X1.692 Y19.373 E598.47032
G1 X1.372 Y19.555 E598.48271
G1 X1.056 Y19.694 E598.49432
G1 X0.719 Y19.799 E598.50620
G1 X0.370 Y19.865 E598.51815
G1 X0.014 Y19.886 E598.53015
G1 X-0.341 Y19.865 E598.54211
G1 X-0.692 Y19.798 E598.55413
G1 X-1.022 Y19.696 E598.56575
G1 X-1.346 Y19.553 E598.57767
G1 X-1.664 Y19.373 E598.58996
G1 X-1.939 Y19.178 E598.60130
G1 X-2.471 Y18.680 E598.62582
G1 X-2.909 Y18.101 E598.65025
G1 X-3.236 Y17.469 E598.67419
G1 X-3.442 Y16.809 E598.69745
G1 X-3.517 Y16.127 E598.72053
G1 X-3.585 Y14.316 E598.78150
G1 X-6.620 Y13.396 E598.88820
G1 X-9.607 Y11.799 E599.00215
G1 X-12.232 Y9.645 E599.11639
G1 X-14.385 Y7.020 E599.23061
G1 X-15.982 Y4.034 E599.34454
G1 X-16.966 Y0.790 E599.45859
G1 X-17.299 Y-2.587 E599.57275
G1 X-16.966 Y-5.964 E599.68692
G1 X-15.982 Y-9.208 E599.80097
G1 X-14.385 Y-12.194 E599.91489
G1 X-12.232 Y-14.819 E600.02911
G1 X-9.607 Y-16.973 E600.14336
G1 X-6.620 Y-18.570 E600.25731
G1 X-3.376 Y-19.554 E600.37136
G1 X0.000 Y-19.886 E600.48549
G1 X3.376 Y-19.554 E600.59962
G1 X6.620 Y-18.570 E600.71367
G1 X9.607 Y-16.973 E600.82762
G1 X12.232 Y-14.819 E600.94186
G1 X14.385 Y-12.194 E601.05608
G1 X15.982 Y-9.208 E601.17001
G1 X16.966 Y-5.964 E601.28406
G1 X17.299 Y-2.587 E601.39822
G1 X16.966 Y0.790 E601.51239
G1 X15.982 Y4.034 E601.62644
G1 X14.385 Y7.020 E601.74036
G1 X12.232 Y9.645 E601.85458
G1 X9.607 Y11.799 E601.96882
G1 X6.620 Y13.396 E602.08278
G1 X3.614 Y14.307 E602.18845
G0 F4800 X3.248 Y13.746
G1 F1740 X6.372 Y12.799 E602.29828
G1 X9.252 Y11.260 E602.40814
G1 X11.775 Y9.189 E602.51796
G1 X13.846 Y6.665 E602.62780
G1 X15.386 Y3.786 E602.73765
G1 X16.333 Y0.661 E602.84750
G1 X16.653 Y-2.587 E602.95731
G1 X16.333 Y-5.835 E603.06711
G1 X15.386 Y-8.960 E603.17697
G1 X13.846 Y-11.839 E603.28681
G1 X11.775 Y-14.363 E603.39666
G1 X9.252 Y-16.434 E603.50647
G1 X6.372 Y-17.973 E603.61633
G1 X3.248 Y-18.920 E603.72616
G1 X0.000 Y-19.241 E603.83597
G1 X-3.248 Y-18.920 E603.94577
G1 X-6.372 Y-17.973 E604.05560
G1 X-9.252 Y-16.434 E604.16546
G1 X-11.775 Y-14.363 E604.27527
G1 X-13.846 Y-11.839 E604.38512
G1 X-15.386 Y-8.960 E604.49496
G1 X-16.333 Y-5.835 E604.60482
G1 X-16.653 Y-2.587 E604.71462
G1 X-16.333 Y0.661 E604.82443
G1 X-15.386 Y3.786 E604.93429
G1 X-13.846 Y6.665 E605.04413
G1 X-11.775 Y9.189 E605.15397
G1 X-9.252 Y11.260 E605.26379
G1 X-6.372 Y12.799 E605.37365
G1 X-3.248 Y13.746 E605.48348
G1 X0.000 Y14.066 E605.59328
G1 X3.248 Y13.746 E605.70308
G0 F4800 X3.768 Y14.050
;TYPE:SKIN
G1 F2280 X4.356 Y13.744 E605.72042
G1 X5.168 Y13.498 E605.73776
G1 X5.980 Y13.252 E605.75510
G1 X6.627 Y12.889 E605.78006
G0 F4800 X7.251 Y12.830
G1 F2280 X7.841 Y12.240 E605.80814
G0 F4800 X8.466 Y12.180
G1 F2280 X9.055 Y11.591 E605.83616
G0 F4800 X9.977 Y11.235
G1 F2280 X11.726 Y9.486 E605.91938
G0 F4800 X12.072 Y9.140
G1 F2280 X13.821 Y7.391 E606.00259
G0 F4800 X14.178 Y6.468
G1 F2280 X14.766 Y5.881 E606.03054
G0 F4800 X14.828 Y5.253
G1 F2280 X15.415 Y4.666 E606.05847
G0 F4800 X15.478 Y4.037
G1 F2280 X15.839 Y3.393 E606.07834
G1 X16.085 Y2.580 E606.09556
G1 X16.332 Y1.769 E606.11282
G1 X16.579 Y0.956 E606.13011
G1 X16.692 Y0.277 E606.14325
G1 X16.754 Y-0.349 E606.15606
G1 X16.816 Y-0.977 E606.16885
G1 X16.877 Y-1.604 E606.18162
G1 X16.939 Y-2.231 E606.19439
G1 X16.952 Y-2.810 E606.20637
G1 X16.901 Y-3.325 E606.21686
G1 X16.851 Y-3.840 E606.22735
G1 X16.800 Y-4.355 E606.23784
G1 X16.750 Y-4.870 E606.24837
G1 X16.699 Y-5.385 E606.25886
G1 X16.635 Y-5.887 E606.26938
G1 X16.516 Y-6.334 E606.27864
G1 X16.385 Y-6.768 E606.28790
G1 X16.253 Y-7.202 E606.29714
G1 X16.122 Y-7.636 E606.30636
G1 X15.990 Y-8.070 E606.31560
G1 X15.858 Y-8.504 E606.32479
G1 X15.725 Y-8.937 E606.33405
G1 X15.640 Y-9.418 E606.34251
G1 X15.265 Y-9.608 E606.35096
G1 X15.246 Y-10.155 E606.35939
G1 X14.871 Y-10.345 E606.36787
G1 X14.852 Y-10.892 E606.37634
G1 X14.477 Y-11.083 E606.38477
G1 X14.458 Y-11.629 E606.39318
G1 X14.078 Y-11.816 E606.40162
G1 X14.019 Y-12.322 E606.40972
G1 X13.593 Y-12.462 E606.41783
G1 X13.509 Y-12.943 E606.42592
G1 X13.083 Y-13.083 E606.43403
G1 X12.999 Y-13.565 E606.44213
G1 X12.573 Y-13.705 E606.45024
G1 X12.490 Y-14.187 E606.45839
G1 X12.063 Y-14.326 E606.46651
G1 X11.955 Y-14.783 E606.47468
G1 X11.473 Y-14.867 E606.48287
G1 X11.335 Y-15.295 E606.49108
G1 X10.852 Y-15.377 E606.49928
G1 X10.714 Y-15.805 E606.50749
G1 X10.231 Y-15.887 E606.51569
G1 X10.092 Y-16.315 E606.52386
G1 X9.609 Y-16.397 E606.53202
G1 X9.454 Y-16.808 E606.54022
G1 X8.918 Y-16.837 E606.54876
G1 X8.729 Y-17.214 E606.55727
G1 X8.180 Y-17.231 E606.56582
G1 X7.991 Y-17.608 E606.57437
G1 X7.443 Y-17.626 E606.58285
G1 X7.255 Y-18.002 E606.59134
G1 X6.706 Y-18.019 E606.59988
G1 X6.498 Y-18.378 E606.60840
G1 X5.981 Y-18.426 E606.61770
G1 X5.547 Y-18.558 E606.62701
G1 X5.113 Y-18.690 E606.63632
G1 X4.679 Y-18.821 E606.64566
G1 X4.245 Y-18.953 E606.65497
G1 X3.811 Y-19.084 E606.66435
G1 X3.369 Y-19.209 E606.67374
G1 X2.874 Y-19.279 E606.68438
G1 X2.359 Y-19.329 E606.69500
G1 X1.843 Y-19.380 E606.70564
G1 X1.328 Y-19.430 E606.71621
G1 X0.813 Y-19.481 E606.72675
G1 X0.298 Y-19.531 E606.73728
G1 X-0.262 Y-19.535 E606.74849
G1 X-0.890 Y-19.474 E606.76133
G1 X-1.517 Y-19.412 E606.77421
G1 X-2.144 Y-19.350 E606.78709
G1 X-2.772 Y-19.288 E606.80004
G1 X-3.434 Y-19.192 E606.81292
G1 X-4.236 Y-18.955 E606.83037
G1 X-5.048 Y-18.709 E606.84778
G1 X-5.860 Y-18.463 E606.86519
G1 X-6.449 Y-18.157 E606.88752
G0 F4800 X-7.072 Y-18.100
G1 F2280 X-7.663 Y-17.509 E606.91564
G0 F4800 X-8.287 Y-17.450
G1 F2280 X-8.879 Y-16.859 E606.94378
G0 F4800 X-9.512 Y-16.791
G1 F2280 X-11.262 Y-15.042 E607.02702
G0 F4800 X-12.456 Y-13.847
G1 F2280 X-14.196 Y-12.107 E607.10981
G0 F4800 X-14.272 Y-11.466
G1 F2280 X-14.861 Y-10.877 E607.13783
G0 F4800 X-14.922 Y-10.250
G1 F2280 X-15.511 Y-9.661 E607.16586
G0 F4800 X-15.570 Y-9.036
G1 F2280 X-15.875 Y-8.448 E607.18313
G1 X-16.122 Y-7.636 E607.20041
G1 X-16.368 Y-6.823 E607.21777
G1 X-16.605 Y-6.021 E607.23507
G1 X-16.701 Y-5.359 E607.24790
G1 X-16.763 Y-4.731 E607.26074
G1 X-16.824 Y-4.104 E607.27356
G1 X-16.887 Y-3.477 E607.28639
G1 X-16.948 Y-2.850 E607.29916
G1 X-16.944 Y-2.288 E607.31036
G1 X-16.894 Y-1.772 E607.32087
G1 X-16.843 Y-1.258 E607.33134
G1 X-16.793 Y-0.742 E607.34185
G1 X-16.742 Y-0.227 E607.35238
G1 X-16.692 Y0.287 E607.36290
G1 X-16.621 Y0.782 E607.37337
G1 X-16.497 Y1.224 E607.38260
G1 X-16.366 Y1.658 E607.39182
G1 X-16.234 Y2.092 E607.40102
G1 X-16.102 Y2.526 E607.41021
G1 X-15.971 Y2.960 E607.41940
G1 X-15.839 Y3.394 E607.42860
G1 X-15.701 Y3.822 E607.43775
G1 X-15.611 Y4.297 E607.44617
G1 X-15.236 Y4.488 E607.45463
G1 X-15.217 Y5.035 E607.46305
G1 X-14.842 Y5.226 E607.47151
G1 X-14.823 Y5.772 E607.47992
G1 X-14.448 Y5.963 E607.48838
G1 X-14.429 Y6.509 E607.49679
G1 X-14.046 Y6.692 E607.50522
G1 X-13.982 Y7.194 E607.51330
G1 X-13.556 Y7.334 E607.52141
G1 X-13.472 Y7.815 E607.52950
G1 X-13.046 Y7.955 E607.53761
G1 X-12.962 Y8.437 E607.54572
G1 X-12.536 Y8.576 E607.55382
G1 X-12.452 Y9.058 E607.56193
G1 X-12.023 Y9.195 E607.57011
G1 X-11.911 Y9.648 E607.57831
G1 X-11.427 Y9.730 E607.58653
G1 X-11.289 Y10.158 E607.59474
G1 X-10.806 Y10.241 E607.60290
G1 X-10.668 Y10.668 E607.61105
G1 X-10.186 Y10.751 E607.61920
G1 X-10.047 Y11.178 E607.62732
G1 X-9.564 Y11.261 E607.63548
G1 X-9.404 Y11.667 E607.64363
G1 X-8.864 Y11.693 E607.65213
G1 X-8.675 Y12.069 E607.66066
G1 X-8.127 Y12.086 E607.66910
G1 X-7.938 Y12.463 E607.67765
G1 X-7.389 Y12.480 E607.68619
G1 X-7.200 Y12.857 E607.69474
G1 X-6.652 Y12.874 E607.70323
G1 X-6.440 Y13.228 E607.71180
G1 X-5.917 Y13.271 E607.72111
G1 X-5.483 Y13.403 E607.73038
G1 X-5.049 Y13.534 E607.73969
G1 X-4.616 Y13.667 E607.74895
G1 X-4.182 Y13.798 E607.75825
G1 X-3.747 Y13.930 E607.76758
G1 X-3.433 Y13.898 E607.77820
G1 F3600 E603.97820
G0 F4800 X-8.119 Y-4.673
;TYPE:WALL-INNER
G1 F3600 E607.77820
G1 F2280 X-8.559 Y-5.647 E607.81416
G1 X-7.420 Y-7.278 E607.88108
G1 X-8.730 Y-10.120 E607.98637
G1 X-7.678 Y-10.120 E608.02176
G1 X-6.405 Y-7.383 E608.12332
G1 X-8.119 Y-4.673 E608.23119
G0 F4800 X-7.607 Y-7.442
G0 X-7.879 Y-7.319
;TYPE:WALL-OUTER
G1 F1740 X-9.354 Y-10.520 E608.34977
G1 X-7.422 Y-10.520 E608.41477
G1 X-5.950 Y-7.354 E608.53224
G1 X-8.178 Y-3.830 E608.67250
G1 X-9.017 Y-5.689 E608.74112
G1 X-7.879 Y-7.319 E608.80800
G0 F4800 X-7.953 Y-8.677
;TYPE:FILL
G1 F2280 X-7.382 Y-9.248 E608.83517
G1 F3600 E605.03517
G0 F4800 X-4.261 Y-10.261
;TYPE:WALL-INNER
G1 F3600 E608.83517
G1 F2280 X11.157 Y-10.261 E609.35389
G1 X1.872 Y8.913 E610.07062
G1 X-1.877 Y8.913 E610.19675
G1 X-6.719 Y-1.393 E610.57984
G1 X-4.926 Y-4.214 E610.69230
G1 X-0.380 Y5.610 E611.05649
G1 X0.382 Y5.614 E611.08212
G1 X6.849 Y-7.939 E611.58734
G1 X-3.181 Y-7.939 E611.92479
G1 X-4.261 Y-10.261 E612.01094
G0 F4800 X-4.888 Y-10.661
;TYPE:WALL-OUTER
G1 F1740 X11.797 Y-10.661 E612.57229
G1 X2.123 Y9.313 E613.31895
G1 X-2.131 Y9.313 E613.46207
G1 X-7.174 Y-1.421 E613.86107
G1 X-4.871 Y-5.047 E614.00559
G1 X-0.124 Y5.211 E614.38586
G1 X0.130 Y5.213 E614.39441
G1 X6.216 Y-7.539 E614.86979
G1 X-3.437 Y-7.539 E615.19455
G1 X-4.888 Y-10.661 E615.31037
G1 F3600 E611.51037
G0 F4800 X-1.940 Y-8.038
;TYPE:FILL
G1 F3600 E615.31037
G1 F2280 X0.182 Y-10.161 E615.41136
G0 F4800 X-0.181 Y-10.160
G1 F2280 X1.940 Y-8.038 E615.51230
G0 F4800 X4.712 Y-8.038
G1 F2280 X6.834 Y-10.161 E615.61329
G0 F4800 X6.470 Y-10.160
G1 F2280 X9.520 Y-7.110 E615.75840
G0 F4800 X8.658 Y-5.332
G1 F2280 X3.030 Y0.295 E616.02616
G0 F4800 X3.220 Y-0.105
G1 F2280 X5.179 Y1.853 E616.11934
G0 F4800 X1.071 Y4.398
G1 F2280 X3.009 Y6.335 E616.21152
G0 F4800 X2.414 Y7.564
G1 F2280 X1.166 Y8.812 E616.27090
G0 F4800 X-1.166 Y8.811
G1 F2280 X-2.387 Y7.590 E616.32900
G0 F4800 X-2.987 Y6.313
G1 F2280 X-1.057 Y4.383 E616.42082
G0 F4800 X-2.877 Y0.448
G1 F2280 X-5.868 Y-2.542 E616.56311
G0 F4800 X-3.162 Y-0.164
G1 F2280 X-5.113 Y1.787 E616.65594
G0 F4800 X-0.360 Y5.579
G0 X0.362 Y5.582
G0 X5.370 Y-4.608
G1 F2280 X7.350 Y-2.628 E616.75014
;LAYER:8
M117 Nb = 9 / 15
M106 S132
G1 F3600 E612.95014
G0 F4800 X3.219 Y14.151 Z1.860
;TYPE:WALL-INNER
G1 F3600 E616.75014
G1 F2340 X3.182 Y15.132 E616.78317
G1 X3.144 Y16.104 E616.81590
G1 X3.076 Y16.728 E616.83702
G1 X2.893 Y17.317 E616.85777
G1 X2.595 Y17.890 E616.87950
G1 X2.204 Y18.410 E616.90138
G1 X2.087 Y18.520 E616.90679
G1 X2.225 Y18.352 E616.91410
G1 X2.569 Y17.760 E616.93714
G1 X2.827 Y17.116 E616.96048
G1 X2.991 Y16.439 E616.98391
G1 X3.045 Y15.781 E617.00612
G1 X3.064 Y15.134 E617.02790
G1 X3.094 Y14.163 E617.06058
G1 X3.219 Y14.151 E617.06481
G0 F4800 X0.000 Y14.311
G0 X-3.028 Y14.080
G0 X-3.045 Y15.782
G1 F2340 X-2.991 Y16.439 E617.08699
G1 X-2.827 Y17.116 E617.11042
G1 X-2.569 Y17.760 E617.13376
G1 X-2.245 Y18.316 E617.15541
G1 X-2.569 Y17.887 E617.17350
G1 X-2.865 Y17.317 E617.19511
G1 X-3.050 Y16.723 E617.21604
G1 X-3.116 Y16.115 E617.23662
G1 X-3.191 Y14.153 E617.30267
G1 X-3.094 Y14.163 E617.30595
G1 X-3.045 Y15.782 E617.36045
G0 F4800 X-2.646 Y15.759
;TYPE:WALL-OUTER
G1 F1740 X-2.595 Y16.375 E617.38124
G1 X-2.445 Y16.994 E617.40267
G1 X-2.208 Y17.584 E617.42406
G1 X-1.895 Y18.123 E617.44503
G1 X-1.512 Y18.585 E617.46522
G1 X-1.293 Y18.786 E617.47522
G1 X-1.061 Y18.957 E617.48492
G1 X-0.814 Y19.097 E617.49447
G1 X-0.553 Y19.202 E617.50393
G1 X-0.281 Y19.268 E617.51335
G1 X0.000 Y19.291 E617.52284
G1 X0.282 Y19.268 E617.53236
G1 X0.554 Y19.202 E617.54177
G1 X0.815 Y19.097 E617.55124
G1 X1.067 Y18.955 E617.56097
G1 X1.510 Y18.589 E617.58030
G1 X1.896 Y18.123 E617.60066
G1 X2.208 Y17.584 E617.62161
G1 X2.445 Y16.994 E617.64300
G1 X2.595 Y16.375 E617.66443
G1 X2.646 Y15.759 E617.68523
G1 X2.684 Y14.448 E617.72935
G1 X0.000 Y14.712 E617.82009
G1 X-2.686 Y14.448 E617.91089
G1 X-2.646 Y15.759 E617.95502
G0 F4800 X-3.517 Y16.127
G1 F1740 X-3.585 Y14.316 E618.01599
G1 X-6.620 Y13.396 E618.12268
G1 X-9.607 Y11.799 E618.23664
G1 X-12.232 Y9.645 E618.35088
G1 X-14.385 Y7.020 E618.46510
G1 X-15.982 Y4.034 E618.57902
G1 X-16.966 Y0.790 E618.69307
G1 X-17.299 Y-2.587 E618.80724
G1 X-16.966 Y-5.964 E618.92141
G1 X-15.982 Y-9.208 E619.03546
G1 X-14.385 Y-12.194 E619.14938
G1 X-12.232 Y-14.819 E619.26360
G1 X-9.607 Y-16.973 E619.37784
G1 X-6.620 Y-18.570 E619.49180
G1 X-3.375 Y-19.554 E619.60588
G1 X0.000 Y-19.886 E619.71997
G1 X3.376 Y-19.554 E619.83410
G1 X6.620 Y-18.570 E619.94815
G1 X9.607 Y-16.973 E620.06211
G1 X12.232 Y-14.819 E620.17635
G1 X14.385 Y-12.194 E620.29057
G1 X15.982 Y-9.208 E620.40449
G1 X16.966 Y-5.964 E620.51854
G1 X17.299 Y-2.587 E620.63271
G1 X16.966 Y0.790 E620.74687
G1 X15.982 Y4.034 E620.86092
G1 X14.385 Y7.020 E620.97485
G1 X12.232 Y9.645 E621.08907
G1 X9.607 Y11.799 E621.20331
G1 X6.620 Y13.396 E621.31726
G1 X3.613 Y14.307 E621.42297
G1 X3.544 Y16.127 E621.48425
G1 X3.470 Y16.809 E621.50733
G1 X3.264 Y17.469 E621.53059
G1 X2.935 Y18.104 E621.55465
G1 X2.502 Y18.678 E621.57884
G1 X1.968 Y19.178 E621.60345
G1 X1.692 Y19.373 E621.61482
G1 X1.372 Y19.555 E621.62720
G1 X1.056 Y19.694 E621.63882
G1 X0.719 Y19.799 E621.65069
G1 X0.370 Y19.865 E621.66264
G1 X0.014 Y19.886 E621.67464
G1 X-0.341 Y19.865 E621.68661
G1 X-0.692 Y19.798 E621.69863
G1 X-1.022 Y19.696 E621.71025
G1 X-1.346 Y19.553 E621.72216
G1 X-1.664 Y19.373 E621.73446
G1 X-1.939 Y19.178 E621.74580
G1 X-2.471 Y18.680 E621.77032
G1 X-2.909 Y18.101 E621.79474
G1 X-3.236 Y17.469 E621.81868
G1 X-3.442 Y16.809 E621.84194
G1 X-3.517 Y16.127 E621.86503
G0 F4800 X-3.218 Y16.105
G0 X-3.278 Y14.043
G0 X-3.248 Y13.746
G1 F1740 X0.000 Y14.066 E621.97483
G1 X3.248 Y13.746 E622.08463
G1 X6.372 Y12.799 E622.19446
G1 X9.252 Y11.260 E622.30432
G1 X11.775 Y9.189 E622.41413
G1 X13.846 Y6.665 E622.52398
G1 X15.386 Y3.786 E622.63382
G1 X16.333 Y0.661 E622.74368
G1 X16.653 Y-2.587 E622.85348
G1 X16.333 Y-5.835 E622.96329
G1 X15.386 Y-8.960 E623.07315
G1 X13.846 Y-11.839 E623.18299
G1 X11.775 Y-14.363 E623.29283
G1 X9.252 Y-16.434 E623.40265
G1 X6.372 Y-17.973 E623.51251
G1 X3.248 Y-18.920 E623.62234
G1 X0.000 Y-19.241 E623.73214
G1 X-3.248 Y-18.920 E623.84195
G1 X-6.372 Y-17.973 E623.95178
G1 X-9.252 Y-16.434 E624.06164
G1 X-11.775 Y-14.363 E624.17145
G1 X-13.846 Y-11.839 E624.28130
G1 X-15.386 Y-8.960 E624.39114
G1 X-16.333 Y-5.835 E624.50100
G1 X-16.653 Y-2.587 E624.61080
G1 X-16.333 Y0.661 E624.72061
G1 X-15.386 Y3.786 E624.83046
G1 X-13.846 Y6.665 E624.94031
G1 X-11.775 Y9.189 E625.05015
G1 X-9.252 Y11.260 E625.15997
G1 X-6.372 Y12.799 E625.26983
G1 X-3.248 Y13.746 E625.37965
G0 F4800 X-3.768 Y14.050
;TYPE:SKIN
G1 F2340 X-4.355 Y13.745 E625.39690
G1 X-5.167 Y13.499 E625.41417
G1 X-5.979 Y13.252 E625.43145
G1 X-6.626 Y12.889 E625.45641
G0 F4800 X-7.252 Y12.829
G1 F2340 X-7.841 Y12.240 E625.48443
G0 F4800 X-8.467 Y12.179
G1 F2340 X-9.055 Y11.592 E625.51238
G0 F4800 X-9.977 Y11.235
G1 F2340 X-11.725 Y9.487 E625.59555
G0 F4800 X-12.071 Y9.141
G1 F2340 X-13.822 Y7.390 E625.67886
G0 F4800 X-14.178 Y6.469
G1 F2340 X-14.767 Y5.880 E625.70689
G0 F4800 X-14.828 Y5.253
G1 F2340 X-15.416 Y4.665 E625.73486
G0 F4800 X-15.477 Y4.038
G1 F2340 X-15.839 Y3.393 E625.75490
G1 X-16.086 Y2.581 E625.77217
G1 X-16.332 Y1.768 E625.78953
G1 X-16.578 Y0.956 E625.80687
G1 X-16.693 Y0.277 E625.82008
G1 X-16.754 Y-0.349 E625.83293
G1 X-16.816 Y-0.977 E625.84583
G1 X-16.877 Y-1.604 E625.85871
G1 X-16.939 Y-2.231 E625.87158
G1 X-16.952 Y-2.810 E625.88366
G1 X-16.901 Y-3.325 E625.89424
G1 X-16.851 Y-3.840 E625.90482
G1 X-16.800 Y-4.355 E625.91539
G1 X-16.750 Y-4.870 E625.92601
G1 X-16.699 Y-5.385 E625.93659
G1 X-16.635 Y-5.887 E625.94719
G1 X-16.517 Y-6.334 E625.95652
G1 X-16.385 Y-6.768 E625.96583
G1 X-16.253 Y-7.202 E625.97514
G1 X-16.122 Y-7.636 E625.98441
G1 X-15.990 Y-8.070 E625.99372
G1 X-15.858 Y-8.504 E626.00303
G1 X-15.725 Y-8.937 E626.01236
G1 X-15.641 Y-9.418 E626.02086
G1 X-15.264 Y-9.607 E626.02937
G1 X-15.247 Y-10.156 E626.03792
G1 X-14.870 Y-10.345 E626.04643
G1 X-14.852 Y-10.893 E626.05492
G1 X-14.476 Y-11.082 E626.06341
G1 X-14.458 Y-11.630 E626.07190
G1 X-14.078 Y-11.815 E626.08040
G1 X-14.020 Y-12.323 E626.08852
G1 X-13.593 Y-12.461 E626.09671
G1 X-13.510 Y-12.944 E626.10483
G1 X-13.082 Y-13.083 E626.11301
G1 X-13.000 Y-13.566 E626.12117
G1 X-12.573 Y-13.704 E626.12932
G1 X-12.491 Y-14.188 E626.13758
G1 X-12.062 Y-14.325 E626.14576
G1 X-11.955 Y-14.783 E626.15399
G1 X-11.474 Y-14.868 E626.16212
G1 X-11.335 Y-15.295 E626.17028
G1 X-10.852 Y-15.378 E626.17844
G1 X-10.713 Y-15.804 E626.18658
G1 X-10.231 Y-15.888 E626.19469
G1 X-10.092 Y-16.314 E626.20283
G1 X-9.610 Y-16.398 E626.21094
G1 X-9.454 Y-16.807 E626.21904
G1 X-8.918 Y-16.838 E626.22753
G1 X-8.728 Y-17.213 E626.23601
G1 X-8.181 Y-17.232 E626.24444
G1 X-7.991 Y-17.608 E626.25294
G1 X-7.444 Y-17.626 E626.26141
G1 X-7.254 Y-18.002 E626.26985
G1 X-6.707 Y-18.020 E626.27836
G1 X-6.498 Y-18.377 E626.28682
G1 X-5.981 Y-18.426 E626.29603
G1 X-5.547 Y-18.558 E626.30523
G1 X-5.113 Y-18.689 E626.31446
G1 X-4.679 Y-18.821 E626.32369
G1 X-4.244 Y-18.952 E626.33301
G1 X-3.811 Y-19.084 E626.34226
G1 X-3.369 Y-19.208 E626.35157
G1 X-2.874 Y-19.278 E626.36217
G1 X-2.358 Y-19.329 E626.37272
G1 X-1.843 Y-19.379 E626.38325
G1 X-1.328 Y-19.430 E626.39378
G1 X-0.813 Y-19.481 E626.40432
G1 X-0.298 Y-19.531 E626.41485
G1 X0.263 Y-19.535 E626.42599
G1 X0.890 Y-19.473 E626.43876
G1 X1.517 Y-19.412 E626.45158
G1 X2.145 Y-19.350 E626.46442
G1 X2.772 Y-19.288 E626.47730
G1 X3.434 Y-19.192 E626.49019
G1 X4.236 Y-18.956 E626.50762
G1 X5.048 Y-18.709 E626.52497
G1 X5.860 Y-18.463 E626.54231
G1 X6.448 Y-18.158 E626.56460
G0 F4800 X7.073 Y-18.099
G1 F2340 X7.662 Y-17.510 E626.59262
G0 F4800 X8.288 Y-17.449
G1 F2340 X8.878 Y-16.860 E626.62067
G0 F4800 X9.513 Y-16.790
G1 F2340 X11.261 Y-15.042 E626.70384
G0 F4800 X11.325 Y-15.120
G0 X12.532 Y-13.912
G0 X12.455 Y-13.848
G1 F2340 X14.197 Y-12.107 E626.78670
G0 F4800 X14.271 Y-11.467
G1 F2340 X14.861 Y-10.876 E626.81479
G0 F4800 X14.921 Y-10.251
G1 F2340 X15.511 Y-9.661 E626.84286
G0 F4800 X15.569 Y-9.037
G1 F2340 X15.875 Y-8.448 E626.86023
G1 X16.122 Y-7.636 E626.87757
G1 X16.368 Y-6.824 E626.89491
G1 X16.605 Y-6.021 E626.91238
G1 X16.702 Y-5.359 E626.92521
G1 X16.763 Y-4.732 E626.93808
G1 X16.825 Y-4.104 E626.95098
G1 X16.886 Y-3.477 E626.96386
G1 X16.948 Y-2.850 E626.97673
G1 X16.944 Y-2.287 E626.98801
G1 X16.894 Y-1.773 E626.99856
G1 X16.843 Y-1.258 E627.00914
G1 X16.793 Y-0.742 E627.01978
G1 X16.742 Y-0.228 E627.03033
G1 X16.692 Y0.287 E627.04095
G1 X16.621 Y0.782 E627.05155
G1 X16.498 Y1.224 E627.06085
G1 X16.366 Y1.658 E627.07016
G1 X16.234 Y2.092 E627.07947
G1 X16.102 Y2.525 E627.08872
G1 X15.971 Y2.960 E627.09801
G1 X15.839 Y3.394 E627.10724
G1 X15.701 Y3.821 E627.11649
G1 X15.612 Y4.298 E627.12498
G1 X15.236 Y4.488 E627.13345
G1 X15.218 Y5.036 E627.14198
G1 X14.842 Y5.225 E627.15047
G1 X14.824 Y5.773 E627.15891
G1 X14.448 Y5.962 E627.16744
G1 X14.430 Y6.510 E627.17588
G1 X14.045 Y6.691 E627.18443
G1 X13.983 Y7.194 E627.19257
G1 X13.555 Y7.333 E627.20075
G1 X13.473 Y7.816 E627.20895
G1 X13.045 Y7.954 E627.21712
G1 X12.963 Y8.438 E627.22534
G1 X12.535 Y8.575 E627.23354
G1 X12.453 Y9.059 E627.24171
G1 X12.023 Y9.195 E627.24995
G1 X11.910 Y9.648 E627.25811
G1 X11.428 Y9.731 E627.26622
G1 X11.289 Y10.158 E627.27438
G1 X10.807 Y10.241 E627.28248
G1 X10.667 Y10.667 E627.29059
G1 X10.186 Y10.752 E627.29868
G1 X10.046 Y11.177 E627.30677
G1 X9.565 Y11.262 E627.31487
G1 X9.403 Y11.666 E627.32292
G1 X8.865 Y11.693 E627.33135
G1 X8.674 Y12.068 E627.33981
G1 X8.127 Y12.087 E627.34823
G1 X7.937 Y12.462 E627.35668
G1 X7.390 Y12.481 E627.36511
G1 X7.199 Y12.856 E627.37357
G1 X6.652 Y12.875 E627.38199
G1 X6.439 Y13.227 E627.39050
G1 X5.917 Y13.272 E627.39976
G1 X5.483 Y13.403 E627.40899
G1 X5.049 Y13.535 E627.41822
G1 X4.615 Y13.666 E627.42745
G1 X4.181 Y13.798 E627.43664
G1 X3.747 Y13.929 E627.44587
G1 X3.433 Y13.898 E627.45648
G1 F3600 E623.65648
G0 F4800 X-8.118 Y-4.672
;TYPE:WALL-INNER
G1 F3600 E627.45648
G1 F2340 X-8.559 Y-5.647 E627.49249
